!!!!SEGMENT: pl-wn--mus-iii-83-782-cim_zarebski-juliusz--trois-danses-galiciennes-op-2-no-1.krn
!!!cenid: 18xx:3544
!!!COM: Zarębski, Juliusz
!!!COM-rismID: pe30020631
!!!CDT: 1854/02/28-1885/09/15
!!!CNT:
!!!OTL: Trois Danses galiciennes Op. 2 no. 1
!!!PDT:
!!!AGN:
!!!YEC: Copyright 2022 Narodowy Instytut Fryderyka Chopina (https://polishscores.org)
!!!YEM: License CC-BY-4.0 (https://creativecommons.org/licenses/by/4.0)
!!!SMS-siglum: PL-Wn
!!!SMS-shelfmark: Mus.III.83.782 Cim.
!!!SMS-shelfwork: W
!!!SMS-variant:
!!!SMS-altvar:
!!!NIFC-rismSourceID:
!!!NIFC-rismChildID:
!!!NIFC-islandoraID: none
!!!URL-pdf-islandora:
!!!URL-scan: https://polona2.pl/item/danses-polonaises-pour-piano-a-quatre-mains-ser-1-trois-danses-galiciennes-op-2-no-1,NTM4MjU5NzE/3 @EN{Scan on Polona} @PL{Skany w portalu Polona}
!!!IIIF: https://polona2.pl/iiif/item/NTM4MjU5NzE/manifest.json
!!!ONB-nifc:
!!!AIN: 2 piano
!!!OMD:
!!!OMD-mod: Allegretto con moto
!!!key: g
**kern	**kern	**dynam	**kern	**kern	**dynam
*part2	*part2	*part2	*part1	*part1	*part1
*staff4	*staff3	*staff3/4	*staff2	*staff1	*staff1/2
*I"Nº. 1. Secondo.	*I"Nº. 1. Secondo.	*	*I"Nº. 1. Primo.	*I"Nº. 1. Primo.	*
*mI"Pianoforte Secondo	*mI"Pianoforte Secondo	*	*mI"Pianoforte Primo	*mI"Pianoforte Primo	*
*I'	*I'	*	*I'	*I'	*
*mI'pf 2	*mI'pf 2	*	*mI'pf 1	*mI'pf 1	*
*Ipiano	*Ipiano	*	*Ipiano	*Ipiano	*
*ICklav	*ICklav	*	*ICklav	*ICklav	*
*clefF4	*clefF4	*	*clefF4	*clefG2	*
*k[b-e-]	*k[b-e-]	*	*k[b-e-]	*k[b-e-]	*
*g:	*g:	*	*g:	*g:	*
*M2/4	*M2/4	*	*M2/4	*M2/4	*
=1	=1	=1	=1	=1	=1
*	*	*	*^	*	*
*xywh-#4:319,321,2486,1086	*xywh-#4:319,321,2486,1086	*	*xywh-#5:202,304,2499,1086	*	*xywh-#5:202,304,2499,1086	*
*ped	*	*	*	*cue	*	*
!	!LO:TX:a:mod= :t=Allegretto con moto.:B	!	!LO:TX:a:t=Secondo	!	!LO:TX:a:B:mod= :t=Allegretto con moto.	!
8GGL 8GGG/	2r	pp	2r	8GGL 8GGG\	2r	.
8GG 8GGG/	.	.	.	8GG 8GGG\	.	.
8GG 8GGG/	.	.	.	8GG 8GGG\	.	.
8GGJ 8GGG/	.	.	.	8GGJ 8GGG\	.	.
=2	=2	=2	=2	=2	=2	=2
*	*	*	*	*^	*	*
*	*	*	*	*	*cue	*	*
*	*	*	*	*tremolo	*Xtremolo	*	*
8GGL 8GGG/	8D\L	.	2rd	8GGL 8GGG\	8D/L	2r	.
8GG 8GGG/	8D\	.	.	8GG 8GGG\	8D/	.	.
8GG 8GGG/	8D\	.	.	8GG 8GGG\	8D/	.	.
8GGJ 8GGG/	8D\J	.	.	8GGJ 8GGG\	8D/J	.	.
=3	=3	=3	=3	=3	=3	=3	=3
*	*	*	*	*tremolo	*tremolo	*	*
8GGL 8GGG/	8GL 8D\	.	2rf	8GGL 8GGG\	8GL 8D/	2r	.
8GG 8GGG/	8G 8D\	.	.	8GG 8GGG\	8G 8D/	.	.
8GG 8GGG/	8G 8D\	.	.	8GG 8GGG\	8G 8D/	.	.
8GGJ 8GGG/	8GJ 8D\	.	.	8GGJ 8GGG\	8GJ 8D/	.	.
*	*	*	*	*Xtremolo	*Xtremolo	*	*
*	*	*	*clefG2	*Xcue	*Xcue	*	*
*	*	*	*v	*v	*v	*	*
=4	=4	=4	=4	=4	=4
8GGL 8GGG/	8GL 8D\	.	8d/L	2r	pp
8GG 8GGG/	8G 8D\	.	8d/	.	.
8GG 8GGG/	8G 8D\	.	8d/	.	.
8GGJ 8GGG/	8GJ 8D\	.	8d/J	.	.
*Xped	*	*	*	*	*
=5	=5	=5	=5	=5	=5
8GGL 8GGG/	8GL 8D\	.	8d/L	(16g/LL	.
.	.	.	.	16a/	.
8GG 8GGG/	8G 8D\	.	8d/	16b-/	.
.	.	.	.	16cc/JJ	.
8GG 8GGG/	8A 8D\	.	8f#X 8d/	8dd'\L)	.
8GGJ 8GGG/	8AJ 8D\	.	8f#J 8d/	8dd'\J	.
=6	=6	=6	=6	=6	=6
8GGL 8GGG/	8B-L 8D\	.	8gL 8d/	8gg'\L	.
8GG 8GGG/	8B- 8D\	.	8g 8d/	8dd'\	.
8GG 8GGG/	8F#X 8D\	.	8a 8d/	(8.dd^\	.
8GGJ 8GGG/	8F#J 8D\	.	8aJ 8d/	.	.
.	.	.	.	16cc\Jk	.
!LO:LB:g=original	!LO:LB:g=original	!	!	!	!
=7	=7	=7	=7	=7	=7
*xywh-#4:183,1407,2622,494	*xywh-#4:183,1407,2622,494	*	*	*	*
8GGL 8GGG/	8GL 8D\	.	8gL 8d/	8b-'/L)	.
!	!	!	!	!LO:TUP:b	!
8GG 8GGG/	8G 8D\	.	8d/	(24b-/L	.
.	.	.	.	24cc/	.
.	.	.	.	24b-/JJ	.
8GG 8GGG/	8A 8D\	.	8d/	8a'/L)	.
8GGJ 8GGG/	8AJ 8D\	.	8d/J	8f#X'/J	.
!	!	!	!LO:LB:g=original	!LO:LB:g=original	!
=8	=8	=8	=8	=8	=8
*	*	*	*xywh-#5:165,1391,2536,528	*xywh-#5:165,1391,2536,528	*
8GGL 8GGG/	8B-L 8D\	.	8d/L	4g/	.
8GG 8GGG/	8B- 8D\	.	8d/	.	.
!	!	!	!LO:TX:t=P:problem=klamra łącząca dźwięk d	!LO:TX:b:i:t=m.g.	!
8GG 8GGG/	8A 8D\	.	8d/	4d/	.
8GGJ 8GGG/	8AJ 8D\	.	8d/J	.	.
=9	=9	=9	=9	=9	=9
8GGL 8GGG/	8GL 8D\	.	8d/L	(16g/LL	.
.	.	.	.	16a/	.
8GG 8GGG/	8G 8D\	.	8d/	16b-/	.
.	.	.	.	16cc/JJ	.
8GG 8GGG/	8A 8D\	.	8f#X 8d/	8dd'\L)	.
8GGJ 8GGG/	8AJ 8D\	.	8f#J 8d/	8dd'\J	.
=10	=10	=10	=10	=10	=10
8GGL 8GGG/	8B-L 8D\	.	8gL 8d/	8gg'\L	.
8GG 8GGG/	8B- 8D\	.	8g 8d/	8dd'\	.
8GG 8GGG/	8F#X 8D\	.	8a 8d/	(8.dd^\	.
8GGJ 8GGG/	8F#J 8D\	.	8aJ 8d/	.	.
.	.	.	.	16cc\Jk	.
=11	=11	=11	=11	=11	=11
8GGL 8GGG/	8GL 8D\	.	8gL 8d/	8b-'/L)	.
!	!	!	!	!LO:TUP:b	!
8GG 8GGG/	8G 8D\	.	8d/	(24b-/L	.
.	.	.	.	24cc/	.
.	.	.	.	24b-/JJ	.
8GG 8GGG/	8A 8D\	.	8d/	8a'/L)	.
8GGJ 8GGG/	8AJ 8D\	.	8d/J	8f#X'/J	.
=12	=12	=12	=12	=12	=12
8GGL 8GGG/	8GL 8D\	.	8d/L	4g/	.
8GG 8GGG/	8G 8D\	.	8d/	.	.
8GG/	8A 8D\	.	8d/	4a^>/	.
8GG/J	8AJ 8D\	.	8d/J	.	.
=13	=13	=13	=13	=13	=13
8FF/L	8AL 8D\	.	(16d/LL	(16dd\LL	.
.	.	.	16en/	16een\	.
8FF/	8A 8D\	.	16f/	16ff\	.
.	.	.	16g/JJ	16gg\JJ	.
8C#X 8EEn/	8A 8G\	.	8a'/L)	8aa'\L)	.
8C#J 8EE/	8AJ 8G\	.	8a'/J	8aa'\J	.
!LO:LB:g=original	!LO:LB:g=original	!	!	!	!
=14	=14	=14	=14	=14	=14
*xywh-#4:183,1902,2601,573	*xywh-#4:183,1902,2601,573	*	*	*	*
8DL 8DD/	8AL 8F\	.	8dd'/L	8ddd'\L	.
8D 8DD/	8A 8F\	.	8a'/	8aa'\	.
8AA 8DD/	8c#X 8En\	.	(8.a^>/	(8.aa^\	.
8AAJ 8DD/	8c#J 8E\	.	.	.	.
.	.	.	16g/Jk	16gg\Jk	.
!	!	!	!LO:LB:g=original	!LO:LB:g=original	!
=15	=15	=15	=15	=15	=15
*	*	*	*xywh-#5:165,1920,2502,523	*xywh-#5:165,1920,2502,523	*
8AAL 8DD/	8dL 8F\	.	8f'/L)	8ff\L)'	.
!	!	!	!LO:TUP:b	!LO:TUP:a	!
8AA 8DD/	8A 8F\	.	(24f/L	(24ff\L	.
.	.	.	24g/	24gg\	.
.	.	.	24f/JJ	24ff\JJ	.
8AA 8DD/	8A 8G\	.	8en'/L)	8een'\L)	.
8AAJ 8DD/	8AJ 8G\	.	8c#X'/J	8cc#X'\J	.
=16	=16	=16	=16	=16	=16
8AAL 8DD/	8AL 8F\	.	4d/	4dd\	.
8AA 8DD/	8A 8F\	.	.	.	.
8AA 8DD/	8A 8G\	.	4r	4a/	.
8AAJ 8DD/	8AJ 8G\	.	.	.	.
=17	=17	=17	=17	=17	=17
8DL 8DD/	8AL 8F\	.	(16d/LL	(16dd\LL	.
.	.	.	16en/	16een\	.
8D 8DD/	8A 8F\	.	16f/	16ff\	.
.	.	.	16g/JJ	16gg\JJ	.
8C 8CC/	8A 8En\	.	8a'/L)	8aa'\L)	.
8CJ 8CC/	8AJ 8E\	.	8a'/J	8aa'\J	.
=18	=18	=18	=18	=18	=18
8BBnL 8BBBn/	8AL 8F\	.	8dd'/L	8ddd'\L	.
8BB 8BBB/	8A 8F\	.	8a'/	8aa'\	.
8C#X 8CC#X/	8A 8En\	.	(8.a/^>	(8.aa^\	.
8C#J 8CC#/	8AJ 8E\	.	.	.	.
.	.	.	16g/Jk	16gg\Jk	.
=19	=19	=19	=19	=19	=19
8DL 8DD/	8AL 8F\	.	8f'/L)	8ff'\L)	.
8FF 8FFF'/	8A 8D'\	.	(16f/L	(16ff\L	.
.	.	.	16a/JJ	16aa\JJ	.
8r	8r	.	8g'/L)	8gg'\L)	.
8GGJ 8GGG'/	8B-J 8En'\	.	8en'/J	8een'\J	.
=20	=20	=20	=20	=20	=20
8r	8r	.	(16f/LL	(16ff\LL	.
.	.	.	16en/J	16een\J	.
8GG#X 8GGG#X'/	8Bn 8F'\	.	8d'/J)	8dd'\J)	.
!	!LO:TX:b:i:t=très\nlong	!	!	!LO:TX:b:i:t=très\nlong	!
4AA 4AAA;/	4c#X 4En;\	.	4a 4e;</	4aa 4cc#X;\	.
!LO:LB:g=original	!LO:LB:g=original	!	!LO:LB:g=original	!LO:LB:g=original	!
=21	=21	=21	=21	=21	=21
*xywh-#4:241,2476,2543,500	*xywh-#4:241,2476,2543,500	*	*xywh-#5:73,2444,2594,531	*xywh-#5:73,2444,2594,531	*
16DD/LL	8dL 8F\	.	2r	8r	.
16AA/	.	.	.	.	.
.	8qf/	.	.	.	.
16DD/	8en 8G^\	.	.	(16a/LL	.
16AA/JJ	.	.	.	16b-/JJ)	.
16AAA/LL	8d 8F\	.	.	4a^>/	.
16AA/	.	.	.	.	.
16AAA/	8c#XJ 8En\	.	.	.	.
16AA/JJ	.	.	.	.	.
=22	=22	=22	=22	=22	=22
16DD/LL	8dL 8F\	.	8f/L	8dd\L	.
16AA/	.	.	.	.	.
.	.	.	.	8qff/	.
16DD/	8G^\	.	8g 8en^>/	8een^\	.
16AA/JJ	.	.	.	.	.
16AAA/LL	8F\	.	8f 8d/	8dd\	.
16AA/	.	.	.	.	.
16AAA/	8En\J	.	8eJ 8c#X/	8cc#X\J	.
16AA/JJ	.	.	.	.	.
=23	=23	=23	=23	=23	=23
8DD'/L	8AL 8F'\	.	8fL 8d'/	8dd'\L	<
8AAJ 8DD'/	8d 8F'\	.	8f'/	8ff'\	.
8r	8d 8F'\	.	(8.a^>/	(8.aa^\	[
8AA 8AAA'/	8c#XJ 8En'\	.	.	.	.
.	.	.	16g/Jk	16gg\Jk	.
=24	=24	=24	=24	=24	=24
8r	8dL 8F'\	.	8f'/L)	8ff'\L)	.
8AAL 8DD'/	8A 8F'\	.	8f'/J	8ff'\J	.
8AA 8AAA'/	8A 8G'\	.	(16en/LL	(16een\LL	.
.	.	.	16c#X/J	16cc#X\J	.
8AAJ 8DD'/	8AJ 8F'\	.	8d'/J)	8dd'\J)	.
=25	=25	=25	=25	=25	=25
!	!LO:TX:b:i:mod= :t=cresc._:problem=dynamics with extension lines	!LO:HP:t=cresc.:ext=ud	!	!LO:TX:b:i:mod= :t=cresc._:problem=dynamics with extension lines	!LO:HP:t=cresc.:ext=ud
16GG/LL	8B-L 8G\	<	8g/L	8r	<
16D/	.	.	.	.	.
.	.	.	8qb-/	.	.
16GG/	8c 8A^\	.	8a^>/	(16dd\LL	.
16D/JJ	.	.	.	16ee-X\JJ	.
16DD/LL	8B- 8G\	.	8g/	4dd^\)	.
16D/	.	.	.	.	.
16DD/	8AJ 8F#X\	.	8f#X/J	.	.
16D/JJ	.	.	.	.	.
=26	=26	=26	=26	=26	=26
16GG/LL	8B-L 8G\	.	8g/	8gg\L	.
16D/	.	.	.	.	.
.	.	.	.	8qbb-/	.
16GG/	8c 8A^\	.	4dd 4d^>/	8aa^\	.
16D/JJ	.	.	.	.	.
16DD/LL	8B- 8G\	.	.	8gg\	.
16D/	.	.	.	.	.
16DD/	8AJ 8F#X\	.	8dd 8d^>/	8ff#X\J	.
16D/JJ	.	.	.	.	.
!LO:LB:g=original	!LO:LB:g=original	!	!LO:LB:g=original	!LO:LB:g=original	!
=27	=27	=27	=27	=27	=27
*xywh-#4:241,2977,2534,594	*xywh-#4:241,2977,2534,594	*	*xywh-#5:95,2963,2614,582	*xywh-#5:95,2963,2614,582	*
8GG'/L	8B-L 8G'\	.	8g'/L	8gg'\L	.
8DJ 8GG'/	8B-J 8G'\	.	8b-'/	8bb-'\	.
8r	8r	.	(8.dd^>/	(8.ddd^\	.
8C 8CC'/	8g 8e- 8G'\	.	.	.	.
.	.	.	16cc/Jk	16ccc\Jk	.
=28	=28	=28	=28	=28	=28
8r	8r	.	8b-'/L)	8bb-'\L)	.
8DL 8DD'/	8dL 8B-'\	.	8b-'/J	8bb-'\J	.
8D 8DD'/	8c 8A'\	.	(16a/LL	(16aa\LL	.
.	.	.	16f#X/J	16ff#X\J	.
8DJ 8GG'/	8dJ 8B-'\	[[	8g'/J)	8gg'\J)	[[
=29	=29	=29	=29	=29	=29
16CC/LL	8cL 8E-\	f	8g/L	8cc\L	f
16GG/	.	.	.	.	.
.	.	.	.	8qee-/	.
16CC/	8d 8F^\	<	8g 8fn^</	8dd^\	.
16GG/JJ	.	.	.	.	.
16GGG/LL	8c 8E-\	.	8e-/	8cc\	.
16GG/	.	.	.	.	.
16GGG/	8BnJ 8D\	.	8gJ 8d/	8bn\J	.
16GG/JJ	.	.	.	.	.
=30	=30	=30	=30	=30	=30
!	!	!	!LO:TX:t=P:problem=mixed beam	!	!
16CC/LL	8cL 8E-\	.	8e-/L	8cc/L	.
16GG/	.	.	.	.	.
16CC/	8d 8F^\	.	16dd>Jk 16f>\	16r	.
16GG/JJ	.	.	16r>	16dddJk 16ff/	.
16GGG/LL	8c 8E-\	.	16cc>LL 16e->\	16r	.
16GG/	.	.	16r>	16cccLL 16ee-/	.
16GGG/	8BnJ 8D\	[	16bn>JJ 16d>\	16r	.
16GG/JJ	.	.	16r>	16bbnJJ 16dd/	.
=31	=31	=31	=31	=31	=31
8CC'/L	8cL 8E-'\	ff	8ccL 8e-'\	8cccL 8ee-'\	<
8GGJ 8CC'/	8cJ 8E-'\	.	8ee- 8g'\	8eee- 8gg'\	.
8r	8r	.	(8.gg 8.ee-^\	(8.ggg 8.eee-^\	[ sf
8GG 8GGG'/	8g 8e- 8G'\	.	.	.	.
.	.	.	16ffJk 16dd\	16fffJk 16ddd\	.
=32	=32	=32	=32	=32	=32
8r	8r	.	8ee-L 8cc'\)	8eee-L 8ccc'\)	.
8AAL 8AAA'/	8gL 8e- 8G'\	<	8ee- 8cc'\	8eee-J 8ccc'\	.
8BBn 8BBBn'/	8g 8f 8d 8G'\	.	8dd'\	(16ddd\LL	.
.	.	.	.	16gg\J	.
8CJ 8CC'/	8gJ 8e- 8G'\	[[	8cc'\J	8ccc'\J)	.
!LO:PB:g=original	!LO:PB:g=original	!	!LO:PB:g=original	!LO:PB:g=original	!
=33	=33	=33	=33	=33	=33
*xywh-#6:313,334,2519,626	*xywh-#6:313,334,2519,626	*	*xywh-#7:165,262,2492,589	*xywh-#7:165,262,2492,589	*
8DL 8DD'/	8dL 8B-'^\	sf <	(8.b-L 8.g^>/	(8.bb-L 8.gg^\	.
(16DD/L	(16D\L	.	.	.	.
16EEn/JJ	16En\JJ	.	16dd/Jk	16ddd\Jk	.
16FF#X/LL	16F#X\LL	.	16cc/LL	16ccc\LL	.
16GG/	16G\	.	16b-/	16bb-\	.
16AA/	16A\	.	16a/	16aa\	.
16BB-/JJ	16B-\JJ	.	16g/JJ	16gg\JJ	.
=34	=34	=34	=34	=34	=34
8C'/L)	8c'\L)	.	8b-'\L)	8bb-'\L)	.
8C#X 8CC#X'^>/	8c#X'^\	.	8b-'\J	8bb-'\J	.
8D 8DD'^>/	8d'^\	.	(16a^/LL	(16aa^\LL	.
.	.	.	16f#X/J	16ff#X\J	.
8E-XJ 8EE-X'^>/	8e-X'^\J	[[	8g'/J)	8gg'\J)	sf
=35	=35	=35	=35	=35	=35
8r	8r	.	(16a^/LL	(16aa^\LL	.
.	.	.	16f#X/J	16ff#X\J	.
8E- 8EE-'/	8B- 8G'\	sf	8g'/J)	8gg'\J)	sf
8r	8r	.	(16a^/LL	(16aa^\LL	.
.	.	.	16f#/J	16ff#\J	.
8D 8DD'/	8B- 8Fn'\	sf	8g'/J)	8gg'\J)	sf
=36	=36	=36	=36	=36	=36
8r	8r	.	(16a^/LL	(16aa^\LL	.
.	.	.	16f#X/J	16ff#X\J	.
8C 8CC'/	8B- 8En'\	sf	8g'/J)	8gg'\J)	sf <
4r	(16A\LL	<	(16a\LL	(16aa\LL	.
.	16B-\	.	16b-\	16bb-\	.
.	16c\	.	16cc\	16ccc\	.
.	16d\JJ)	[[	16dd\JJ)	16ddd\JJ)	[[
=37	=37	=37	=37	=37	=37
8FFL 8FFF'/	8aL 8c'^\	sfp	(8.cc^\L	(8.ccc^\L	fp
8FFJ 8FFF'/	8aJ 8c'\	.	.	.	.
.	.	.	16ffn\Jk	16fffn\Jk	.
8r	8r	.	16cc/LL	16ccc\LL	.
.	.	.	16b-/	16bb-\	.
8FF 8FFF'/	8f 8A'\	.	16a/	16aa\	.
.	.	.	16g/JJ	16gg\JJ	.
!	!	!	!LO:LB:g=original	!LO:LB:g=original	!
=38	=38	=38	=38	=38	=38
*	*	*	*xywh-#7:177,852,2480,527	*xywh-#7:177,852,2480,527	*
!	!	!	!LO:SIC:o=8qa/	!	!
.	.	.	(8qa	(8qaa/	.
!	!	!	!LO:SIC:o=8cc'\L)	!	!
8FFL 8FFF'/	8fL 8A'\	.	8cc'L))	8ccc'\L))	.
8FF 8FFF'/	8f 8A'\	.	8cc'\J	8ccc'\J	.
8FF 8FFF'/	8f 8G#X'\	.	(16bn^\LL	(16bbn^\LL	.
.	.	.	16dd\J	16ddd\J	.
8FFJ 8FFF'/	8fJ 8A'\	.	8cc'\J)	8ccc'\J)	.
=39	=39	=39	=39	=39	=39
8FFL 8FFF'/	8aL 8c'^\	.	(8.cc^\L	(8.ccc^\L	.
8FFJ 8FFF'/	8aJ 8c'\	.	.	.	.
.	.	.	16ff\Jk	16fff\Jk	.
8r	8r	.	16cc/LL	16ccc\LL	.
.	.	.	16b-X/	16bb-X\	.
8FF 8FFF'/	8f 8A'\	.	16a/	16aa\	.
.	.	.	16g/JJ	16gg\JJ	.
!LO:LB:g=original	!LO:LB:g=original	!	!	!	!
=40	=40	=40	=40	=40	=40
*xywh-#6:324,960,2509,531	*xywh-#6:324,960,2509,531	*	*	*	*
8FFL 8FFF/	8fL 8A-X'\	.	8cc'\L)	8ccc'\L)	.
8FF 8FFF/	8f 8A-'\	.	8cc\J	8ccc'\J	.
8FF 8FFF/	8f 8G'\	.	(16bn^\LL	(16bbn^\LL	.
.	.	.	16dd\J	16ddd\J	.
8FFJ 8FFF/	8enJ 8G'\	.	8cc'\J)	8ccc'\J)	.
=41	=41	=41	=41	=41	=41
!	!	!LO:DY:t=sempre p	!	!	!
8FFL 8FFF/	(16d\LL	p	8r	2cccTT\	.
.	16f\J	.	.	.	.
8FF 8FFF/	[8enJ [8c^\	.	[4.cc^\	.	.
8FF 8FFF/	16e]LL 16c\]	.	.	.	.
.	16f\J	.	.	.	.
8FFJ 8FFF/	8g\J)	.	.	.	.
=42	=42	=42	=42	=42	=42
8FFL 8FFF/	(16d\LL	.	8cc\]	2cccTTT\	.
.	16f\J	.	.	.	.
8FF 8FFF/	[8enJ [8c^\	.	[4.cc^\	.	.
8FF 8FFF/	16e]LL 16c\]	.	.	.	.
.	16c\J	.	.	.	.
8FFJ 8FFF/	[8d\J)	.	.	.	.
=43	=43	=43	=43	=43	=43
8FFL 8FFF^>/	(16d\LL]	.	8cc\]	2cccTTT\	.
.	16f\J	.	.	.	.
8FF 8FFF/	[8enJ [8c^\	.	[4.cc^\	.	.
8FF 8FFF/	16e]LL 16c\]	.	.	.	.
.	16f\J	.	.	.	.
8FFJ 8FFF/	8g\J)	.	.	.	.
=44	=44	=44	=44	=44	=44
8FFL 8FFF/	(16d\LL	.	8cc\]	2cccTTT\	.
.	16f\J	.	.	.	.
8FF 8FFF/	[8enJ [8c^\	.	[4.cc^\	.	.
8FF 8FFF/	16e]LL 16c\]	.	.	.	.
.	16c\J	.	.	.	.
8FFJ 8FFF/	[8d\J)	.	.	.	.
!	!	!	!LO:LB:g=original	!LO:LB:g=original	!
=45	=45	=45	=45	=45	=45
*	*	*	*xywh-#7:177,1379,2465,508	*xywh-#7:177,1379,2465,508	*
!	!LO:TX:b:i:mod= :t=dim._:problem=dynamics with extension lines	!LO:HP:t=dim.:ext=ud	!	!	!LO:HP:t=dim.
8FFL 8FFF^>/	(16d\LL]	>	8cc\]	8r	>
.	16f\J	.	.	.	.
8FF 8FFF/	[8enJ [8c^\	.	[4.cc^\	(32ccc^\LLL	.
.	.	.	.	32ddd\	.
.	.	.	.	32ccc\	.
.	.	.	.	32ddd\JJ	.
8FF 8FFF/	16e]LL 16c\]	.	.	8ccc'\)J	.
.	16c\J	.	.	.	.
8FFJ 8FFF/	[8d\J)	.	.	8r	.
!LO:LB:g=original	!LO:LB:g=original	!	!	!	!
=46	=46	=46	=46	=46	=46
*xywh-#6:324,1491,2509,507	*xywh-#6:324,1491,2509,507	*	*	*	*
8FFL 8FFF^>/	(16d\LL]	.	8cc\]	8r	.
.	16f\J	.	.	.	.
8FF 8FFF/	[8e-XJ [8c^\	.	[4.cc^\	(32ccc^\LLL	.
.	.	.	.	32ddd\	.
.	.	.	.	32ccc\	.
.	.	.	.	32ddd\JJ	.
8FF 8FFF/	16e-]LL 16c\]	.	.	8ccc'\)J	.
.	16c\J	.	.	.	.
8FFJ 8FFF/	[8d\J)	.	.	8r	.
=47	=47	=47	=47	=47	=47
8FFL 8FFF^>/	(16d\LL]	.	8cc\]	2r	.
.	16f\J	.	.	.	.
8FF 8FFF/	[8enJ [8c^\	.	[4.cc^\	.	.
8FF 8FFF/	16e]LL 16c\]	.	.	.	.
.	16c\J	.	.	.	.
8FFJ 8FFF/	[8d\J)	.	.	.	.
=48	=48	=48	=48	=48	=48
8FFL 8FFF^>/	(16d\LL]	.	8cc\]	2r	.
.	16f\J	.	.	.	.
8FF 8FFF/	[8e-XJ [8c^\	.	4.cc^\	.	.
8FF 8FFF/	16e-]LL 16c\]	.	.	.	.
.	16c\J	.	.	.	.
8FF#XJ 8FFF#X/	8d\J)	]]	.	.	.
=49	=49	=49	=49	=49	=49
8GGL 8GGG/	8GL 8D\	pp	4r	(16g/LL	pp
.	.	.	.	16a/	.
8GG 8GGG/	8G 8D\	.	.	16b-/	.
.	.	.	.	16cc/JJ	.
8FFn 8FFFn/	8A 8D\	.	8fnL 8d/	8dd\L)	.
8FFJ 8FFF/	8AJ 8D\	.	8fJ 8d/	8dd'\J	.
=50	=50	=50	=50	=50	=50
8EEnL 8EEEn/	8B-L 8D\	.	8gL 8d/	8gg'\L	.
8EE 8EEE/	8B- 8D\	.	8g 8d/	8dd'\	.
8FF 8FFF/	8A 8D\	.	8a 8d/	(8.dd^\	.
8FF#XJ 8FFF#X/	8AJ 8D\	.	8aJ 8d/	.	.
.	.	.	.	16cc\Jk	.
=51	=51	=51	=51	=51	=51
8GGL 8GGG/	8GL 8D\	.	8gL 8d/	8b-/L)	.
!	!	!	!	!LO:TUP:b	!
8GG 8GGG/	8G 8D\	.	8d/	(24b-/L	.
.	.	.	.	24cc/	.
.	.	.	.	24b-/JJ	.
8GG 8GGG/	8A 8D\	.	8d/	8a/L)	.
8GGJ 8GGG/	8AJ 8D\	.	8d/J	8f#X/J	.
!LO:LB:g=original	!LO:LB:g=original	!	!LO:LB:g=original	!LO:LB:g=original	!
=52	=52	=52	=52	=52	=52
*xywh-#6:287,1999,2546,541	*xywh-#6:287,1999,2546,541	*	*xywh-#7:175,1887,2468,515	*xywh-#7:175,1887,2468,515	*
8GGL 8GGG/	8B-L 8D\	.	8d/L	4g/	.
8GG 8GGG/	8B- 8D\	.	8d/	.	.
!	!	!	!LO:TX:a:i:t=m.g.	!LO:TX:t=P:problem=klamra łącząca dźwięk d	!
8AA 8AAA/	8A 8D\	.	8d/	4d^>/	.
8AAJ 8AAA/	8AJ 8D\	.	8d/J	.	.
=53	=53	=53	=53	=53	=53
8BB-L 8BBB-'/	8B-'\L	.	(16g/LL	(16gg\LL	.
.	.	.	16a/	16aa\	.
8DJ 8DD'/	8d'\J	.	16b-/	16bb-\	.
.	.	.	16cc/JJ	16ccc\JJ	.
8AAL 8AAA'/	8f#XL 8A'\	.	8dd\L)	8ddd\L)	.
8CJ 8CC'/	8c'\J	.	8dd'\J	8ddd'\J	.
=54	=54	=54	=54	=54	=54
8BB-L 8BBB-'/	8gL 8B-'\	.	8gg'\L	8ggg'\L	.
8DJ 8DD'/	8d'\J	.	8dd'\	8ddd'\	.
8CL 8CC'/	8gL 8c'\	.	(8.dd^\	(8.ddd^\	.
8E-J 8EE-'/	8e-'\J	.	.	.	.
.	.	.	16cc\Jk	16ccc\Jk	.
=55	=55	=55	=55	=55	=55
8DL 8DD'/	8gL 8B-'\	.	8b-/L)	8bb-\L)	.
!	!	!	!LO:TUP:b	!LO:TUP:a	!
8D 8DD'/	8d'\	.	(24b-/L	(24bb-\L	.
.	.	.	24cc/	24ccc\	.
.	.	.	24b-/JJ	24bb-\JJ	.
8C#X 8CC#X'/	8c#X'\	.	8a/L)	8aa\L)	.
8CnJ 8CCn'/	8cn'\J	.	8f#X'/J	8ff#X'\J	.
=56	=56	=56	=56	=56	=56
8BBnL 8BBBn'/	8Bn'\L	.	4g/	4gg\	.
8BB-X 8BBB-X'/	8B-X'\	.	.	.	.
8AA 8AAA'/	8A'\	.	4d/	4dd\	.
8GGJ 8GGG'/	8G'\J	.	.	.	.
=57	=57	=57	=57	=57	=57
8FF#X'/L	8r	.	8a'\L	8aa'\L	.
8DD'^>/J	8d 8c 8A 8D'^\	.	(16a^\L	(16aa^\L	.
.	.	.	16cc\JJ	16ccc\JJ	.
8GG'/L	8r	.	8b-'\L)	8bb-'\L)	.
8DD'^>/J	8d 8B- 8G 8D'^\	.	8b-'\J	8bb-'\J	.
=58	=58	=58	=58	=58	=58
!LO:TX:a:i:t=sempre stacc.	!	!	!	!	!
8AA'/L	8r	.	8a'\L	8aa'\L	.
8DD'^>/J	8d 8c 8F#X 8D'^\	.	(16a^\L	(16aa^\L	.
.	.	.	16cc\JJ	16ccc\JJ	.
8BB-'/L	8r	.	8b-'\L)	8bb-'\L)	.
8DD'^>/J	8d 8B- 8G 8D'^\	.	8b-'\J	8bb-'\J	.
!LO:LB:g=original	!LO:LB:g=original	!	!LO:LB:g=original	!LO:LB:g=original	!
=59	=59	=59	=59	=59	=59
*xywh-#6:287,2541,2556,531	*xywh-#6:287,2541,2556,531	*	*xywh-#7:175,2403,2460,541	*xywh-#7:175,2403,2460,541	*
8C/L	8r	.	(16a/LL	(16aa^\LL	.
.	.	.	16g/J	16gg\J	.
8DD^>/	8d 8c 8A 8D'^\	.	8f#X'/J)	8ff#X'\J)	.
8BB-/	8r	.	4g^>/	4gg^\	.
8DD^>/J	8d 8B- 8G 8D'^\	.	.	.	.
=60	=60	=60	=60	=60	=60
8AA/L	8r	.	8d'/L	8dd'\L	.
8DD^>/	8c 8F#X 8D'^\	.	8d'/J	8dd'\J	.
8GG/	8r	.	4g^>/	4gg^\	.
8DD^>/J	8B- 8G 8D'^\	.	.	.	.
=61	=61	=61	=61	=61	=61
8FF#X/L	8r	.	8a'/L	8aa'\L	.
8DJ 8DD^>/	8d 8c 8A'^\	.	(16a^</L	(16aa^\L	.
.	.	.	16cc/JJ	16ccc\JJ	.
8GG/L	8r	.	8b-'/L)	8bb-'\L)	.
8DJ 8DD^>/	8e- 8B- 8G'^\	.	8b-J 8g'/	8bb-J 8gg'\	.
=62	=62	=62	=62	=62	=62
8AA/L	8r	.	8a'/L	8aa'\L	.
8DJ 8DD^>/	8d 8c 8F#X'^\	.	(16a/L	(16aa^\L	.
.	.	.	16cc/JJ	16ccc\JJ	.
8BB-/L	8r	.	8b-'/L)	8bb-'\L)	.
8DJ 8DD^>/	8e- 8B- 8G'^\	.	8b-J 8g'/	8bb-J 8gg'\	.
=63	=63	=63	=63	=63	=63
8C/L	8r	.	(16a^>/LL	(16aa^\LL	.
.	.	.	16g/J	16gg\J	.
8DD^>/J	8d 8c 8A 8D'^\	.	8f#X'/J)	8ff#X'\J)	.
8BB-/L	8r	.	4g^>/	4gg^\	.
8DD^>/J	8c#X 8G 8En'^\	.	.	.	.
=64	=64	=64	=64	=64	=64
8AA/L	8r	.	8d'/L	8dd'\L	.
8DD^>/J	8cn 8F#X 8D'^\	.	8d'/J	8dd'\J	.
8GG/L	8r	.	4g^>/	4gg^\	.
8DD^>/J	8B- 8G 8D'^\	.	.	.	.
*kcancel	*kcancel	*	*kcancel	*kcancel	*
=65||	=65||	=65||	=65||	=65||	=65||
*k[f#]	*k[f#]	*	*k[f#]	*k[f#]	*
*8ba	*	*	*	*	*
!	!	!LO:HP:t=cresc. molto	!	!	!LO:HP:t=cresc. molto
8FFF#'/L	8r	<	8a\L	8aaL 8dd\	<
8DDD'^>/	8d 8c 8A 8D'^\	.	(16a^\L	(16aaL 16dd^\	.
.	.	.	16cc\JJ	16ccc\JJ	.
8GGG'/	8r	.	8b\L)	8bb\L)	.
8DDD'^>/J	8d 8B 8G 8D'^\	.	8b^\J	8bbJ 8dd^\	.
!LO:LB:g=original	!LO:LB:g=original	!	!LO:LB:g=original	!LO:LB:g=original	!
=66	=66	=66	=66	=66	=66
*xywh-#6:341,3073,2502,558	*xywh-#6:341,3073,2502,558	*	*xywh-#7:81,2944,2554,573	*xywh-#7:81,2944,2554,573	*
8AAA'/L	8r	.	8a'\L	8aaL 8dd'\	.
8DDD'^>/	8d 8c 8F# 8D'^\	.	(16a^\L	(16aaL 16dd^\	.
.	.	.	16cc\JJ	16ccc\JJ	.
8BBB'/	8r	.	8b\L)	8bb\L)	.
8DDD'^>/J	8d 8B 8G 8D'^\	.	8b^\J	8bbJ 8dd^\	.
=67	=67	=67	=67	=67	=67
8AAA'/L	8r	f	(16a^>/LL	(16aaLL 16dd^\	f
.	.	.	16g/J	16gg\J	.
8DDD'^>/	8d 8c 8A 8D'^\	.	8f#X'/J)	8ff#X'\J)	.
8BBB'/	8r	.	4g^>/	4gg 4dd^\	.
8DDD'^>/J	8d 8B 8G 8D'^\	.	.	.	.
=68	=68	=68	=68	=68	=68
8AAA'/L	8r	.	8ddL 8d'/	8ddd'\L	.
8DDD'^>/	8c 8F# 8D'^\	.	8ddJ 8d'/	8ddd'\J	.
8GGG'/	8r	.	4g^>/	4ggg 4gg^\	.
8DDD'^>/J	8d 8B 8G 8D'^\	.	.	.	.
=69	=69	=69	=69	=69	=69
*	*	*	*	*8va	*
8FFF#'/L	8dL 8c 8A 8D'^\	ff	8aaL 8dd'\	8aaaL 8ddd\	ff
8DDD'^>/	8dJ 8c 8A 8D\	.	(16aaL 16dd^>\	(16aaaL 16ddd^\	.
.	.	.	16ccc\JJ	16cccc\JJ	.
8GGG'/	8r	.	8bb\L)	8bbb\L)	.
8DDD'^>/J	8g 8d 8B 8G'^\	.	8bbJ 8dd^>\	8bbbJ 8ddd^\	.
=70	=70	=70	=70	=70	=70
8AAA'/L	8f#L 8d 8c 8F#'^\	.	8aaL 8dd'\	8aaaL 8ddd'\	.
8DDD'^>/	8f#J 8d 8c 8F#'\	.	(16aaL 16dd^>\	(16aaaL 16ddd^\	.
.	.	.	16ccc\JJ	16cccc\JJ	.
8BBB'/	4g 4d 4B 4G'^\	sf	8bb\L)	8bbb\L)	.
8DDD'^>/J	.	.	8bbJ 8dd^>\	8bbbJ 8ddd^\	.
*	*clefG2	*	*	*	*
=71	=71	=71	=71	=71	=71
8FFF#'/L	8r	.	8aaL 8dd'\	8aaaL 8ddd'\	.
8DDD'^>/	8cc 8a 8d 8c^>/	sf	(16aaL 16dd^>\	(16aaaL 16ddd^\	.
.	.	.	16ccc\JJ	16cccc\JJ	.
8GGG'/	8r	.	8bb\L)	8bbb\L)	.
8DDD'^>/J	8b 8g 8d 8B^>/	sf	8bbJ 8dd^>\	8bbbJ 8ddd^\	.
=72	=72	=72	=72	=72	=72
8FFF#'/L	8r	.	(16aaLL 16dd^>\	(16aaaLL 16ddd^\	.
.	.	.	16ccc\	16cccc\	.
8DDD'^>/J	8cc 8a 8d 8c^>/	sf	16bb\	16bbb\	.
.	.	.	16aa\JJ	16aaa\JJ	.
*X8ba	*	*	*	*	*
16r	16r	.	16gg\LL	16ggg\LL	.
(16D\LL	(16d/LL	.	16ff#\	16fff#\	.
16E\	16e/	.	16ee\	16eee\	.
16F#\JJ	16f#/JJ	.	16dd\JJ)	16ddd\JJ)	.
*	*	*	*	*X8va	*
!LO:PB:g=original	!LO:PB:g=original	!	!LO:PB:g=original	!LO:PB:g=original	!
=73||	=73||	=73||	=73||	=73||	=73||
*xywh-#8:267,282,2586,652	*xywh-#8:267,282,2586,652	*	*xywh-#9:32,283,2523,587	*xywh-#9:32,283,2523,587	*
*	*	*	*	*8va	*
8G'\)	8g'/)	ff	8gg'\L	8ggg'\L	ff
.	.	.	(8qff#/	(8qfff#/	.
!	!LO:TX:a:i:t=ten.	!	!	!	!
4G 4E^\	4g 4e^>/	sf	8gg'^\)	8ggg'^\)	sf
.	.	.	8gg'\	8ggg'\	.
.	.	.	(8qff#/	(8qfff#/	.
!	!LO:TX:a:i:t=ten.	!	!	!	!
[8G [8F# [8D^\	[8g [8f# [8d^>/	sf	8gg'^\J)	8ggg'^\J)	sf
=74	=74	=74	=74	=74	=74
8G] 8F#] 8D\]	8g] 8f#] 8d/]	.	8gg'\L	8ggg'\L	.
.	.	.	(8qff#/	(8qfff#/	.
!	!LO:TX:a:i:t=ten.	!	!	!	!
4G 4E 4C^\	4g 4e 4c^>/	sf	8gg'^\)	8ggg'^\)	sf
.	.	.	8ff#'\	8fff#'\	.
!	!LO:TX:a:i:t=ten.	!	!	!	!
8G 8D 8BB^\	8g 8d 8B^>/	sf	8dd'\J	8ddd'\J	.
=75	=75	=75	=75	=75	=75
8r	8r	.	8ee'\L	8eee'\L	<
8CL 8CC'/	8gL 8e 8c 8G'/	.	8gg'\J	8ggg'\J	.
8CJ 8CC'/	8gJ 8e 8c 8G'/	.	(16aa^\LL	(16aaa^\LL	[ sf
.	.	.	16gg\	16ggg\	.
8r	8r	.	16ff#\	16fff#\	.
.	.	.	16ee\JJ	16eee\JJ	.
=76	=76	=76	=76	=76	=76
8GGL 8GGG'/	8G'/L	<	8dd'\L)	8ddd'\L)	.
8BBJ 8BBB'/	8B'/J	.	8dd'\	8ddd'\	.
(16D^/LL	(16d/LL	[ sf	8b'\	8bb'\	.
16C/	16c/	.	.	.	.
16BB/	16B/	.	8g'\J	8gg'\J	.
16AA/JJ	16A/JJ	.	.	.	.
=77	=77	=77	=77	=77	=77
8GG'/)	8G'/)	.	8g'\L	8gg'\L	.
.	.	.	(8qff#/	(8qfff#/	.
4E 4EE^/	4g 4e 4G^>/	sf sf	8gg'^\)	8ggg'^\)	sf
.	.	.	8gg'\	8ggg'\	.
.	.	.	(8qff#/	(8qfff#/	.
[8D [8DD^/	[8g [8f# [8d [8G^>/	sf sf	8gg'\J)	8ggg'\J)	sf
=78	=78	=78	=78	=78	=78
8D] 8DD/]	8g] 8f#] 8d] 8G/]	.	8gg'\L	8ggg'\L	.
.	.	.	(8qff#/	(8qfff#/	.
4C^> 4CC/	4g 4e 4c 4G^>/	sf	8gg'^\)	8ggg'^\)	sf
.	.	.	8ff#'\	8fff#'\	.
8BB^> 8BBB/	8g 8d 8G^>/	sf	8dd'\J	8ddd'\J	.
=79	=79	=79	=79	=79	=79
8r	8r	.	8ee'\L	8eee'\L	<
8AAL 8AAA'/	8gL 8c#X 8A 8G'/	.	8gg'\J	8ggg'\J	.
8AAJ 8AAA'/	8gJ 8c# 8A 8G'/	.	(16aa^\LL	(16aaa^\LL	[ sf
.	.	.	16gg\	16ggg\	.
8r	8r	.	16ff#\	16fff#\	.
.	.	.	16ee\JJ	16eee\JJ	.
*	*clefF4	*	*	*X8va	*
!LO:LB:g=original	!LO:LB:g=original	!	!	!LO:LB:g=original	!LO:LB:g=original
=80	=80	=80	=80	=80	=80
*xywh-#8:204,892,2647,561	*xywh-#8:204,892,2647,561	*	*xywh-#9:39,870,2516,538	*xywh-#9:39,870,2516,538	*
!	!LO:TX:t=P:problem=mixed beam	!	!	!	!
2ryy	8FF#< 8FFF#<'</L	.	8dd'\L)	8ddd'\L)	.
.	8d 8cn 8A 8D'\	.	(16dd^\L	(16ddd^\L	.
.	.	.	16ee\JJ	16eee\JJ	.
.	8GG< 8GGG<'</	.	16dd\LL	16ddd\LL	.
.	.	.	16b\	16bb\	.
.	8d 8B 8G 8D'\J	.	16g\	16gg\	.
.	.	.	16b\JJ	16bb\JJ	.
=81	=81	=81	=81	=81	=81
*	*	*	*	*	*^
!	!	!LO:DY:t=sempre ff	!	!	!LO:HP:b	!LO:DY:a:t=sempre ff
8r	8r	ff <	8a'>/L)	8aa'\L)	<	ff
8DDL 8DDD/	8D\L	.	8cc 8a 8d/	8ccc 8aa\	.	.
8DD#X 8DDD#X/	8D#X\	.	8cc 8a 8d/	8ccc 8aa\	.	.
8EEJ 8EEE/	8E\J	.	8ccJ 8a 8d/	8cccJ 8aa\	.	.
*	*	*	*	*	*v	*v
=82	=82	=82	=82	=82	=82
8FFnL 8FFFn/	8Fn\L	.	8ccL 8a 8d/	8cccL 8aa\	.
8FF#XJ 8FFF#X/	8F#X\J	.	8cc 8a 8d/	8ccc 8aa\	.
!	!	!	!	!	!LO:DY:b
4GG 4GGG^>/	4G^\	[ sf	(8b 8g 8d^/	(8bb 8gg^\	[ sf
.	.	.	8dd'/J)	8ddd'\J)	.
=83	=83	=83	=83	=83	=83
8r	8r	.	8aL 8f#/	8aaL 8ff#\	<
8DDnL 8DDDn/	8Dn\L	<	8cc 8a 8d/	8ccc 8aa\	.
8DD#X 8DDD#X/	8D#X\	.	8cc 8a 8d/	8ccc 8aa\	.
8EEJ 8EEE/	8E\J	.	8ccJ 8a 8d/	8cccJ 8aa\	.
=84	=84	=84	=84	=84	=84
8FFnL 8FFFn/	8Fn\L	.	8ccL 8a 8d/	8cccL 8aa\	.
8FF#XJ 8FFF#X/	8F#X\J	.	8cc 8a 8d/	8ccc 8aa\	.
4GG 4GGG^>/	4G^\	[ sf	(8b 8g 8d^/	(8bb 8gg^\	[ sf
.	.	.	8dd'/J)	8ddd'\J)	.
=85	=85	=85	=85	=85	=85
8r	8r	.	8cc'\L	8ccc'\L	.
8C 8CC'^>/	8g 8e 8G'^\	.	(16ee\L	(16eee\L	.
.	.	.	16gg\JJ	16ggg\JJ	.
8r	8r	.	16ff#^\LL	16fff#^\LL	.
.	.	.	16aa\	16aaa\	.
8C 8CC'^>/	8g 8e 8G'^\	.	16gg\	16ggg\	.
.	.	.	16ee\JJ	16eee\JJ	.
!LO:LB:g=original	!LO:LB:g=original	!	!	!	!
=86	=86	=86	=86	=86	=86
*xywh-#8:240,1402,2577,579	*xywh-#8:240,1402,2577,579	*	*	*	*
!	!LO:TX:t=P:problem=mixed beam	!	!	!	!
2ryy	8FF#< 8FFF#<'</L	.	8dd'\L)	8ddd'\L)	.
.	8d 8c 8A 8D'\	.	(16dd\L	(16ddd\L	.
.	.	.	16ee\JJ	16eee\JJ	.
.	8GG< 8GGG<'</	.	16dd^\LL	16ddd^\LL	.
.	.	.	16b\	16bb\	.
.	8d 8B 8G 8D'\J	.	16g\	16gg\	.
.	.	.	16b\JJ	16bb\JJ	.
!	!	!	!LO:LB:g=original	!LO:LB:g=original	!
=87	=87	=87	=87	=87	=87
*	*	*	*xywh-#9:39,1408,2507,559	*xywh-#9:39,1408,2507,559	*
!	!LO:TX:t=P:problem=mixed beam	!	!	!	!
2ryy	8GG< 8GGG<'</L	.	8cc'\L)	8ccc'\L)	.
.	8g 8e 8G'\	.	(16ee^\L	(16eee^\L	.
.	.	.	16gg\JJ	16ggg\JJ	.
.	8GG< 8GGG<'</	.	16ff#\LL	16fff#\LL	.
.	.	.	16aa\	16aaa\	.
.	8g 8e-X 8G'\J	.	16gg\	16ggg\	.
.	.	.	16ee-X\JJ	16eee-X\JJ	.
=88	=88	=88	=88	=88	=88
8FF#L 8FFF#'/	8r	.	8dd'\L)	8ddd'\L)	.
8DD 8DDD'/	8dL 8c 8A 8D'^\	.	(16dd^\L	(16ddd^\L	.
.	.	.	16een\JJ	16eeen\JJ	.
8GGJ 8GGG'/	8dJ 8B 8G 8D'^\	sf	16dd\LL	16ddd\LL	.
.	.	.	16b\	16bb\	.
8r	8r	.	16g\	16gg\	.
.	.	.	16b\JJ)	16bb\JJ)	.
=89	=89	=89	=89	=89	=89
*	*^	*	*	*	*
*	*	*xywh-#8:240,1402,2577,579	*	*	*	*
!	!	!	!	!	!	!LO:DY:t=sempre ff
8r	4g^/	8G\L	sf	8r	8r	ff
*	*	*	*	*	*8va	*
4E 4EE^>/	.	8e\J	.	16gg\LL	16ggg\LL	.
.	.	.	.	16ff#\JJ	16fff#\JJ	.
.	4g^/	8G\L	sf	16gg^\LL	16ggg^\LL	.
.	.	.	.	16ff#\	16fff#\	.
[8D [8DD^>/	.	8f#J 8d\	.	16gg\	16ggg\	.
.	.	.	.	16ff#\JJ	16fff#\JJ	.
=90	=90	=90	=90	=90	=90	=90
8D] 8DD/]	4g^/	8G\L	sf	16gg^\LL	16ggg^\LL	.
.	.	.	.	16ff#\	16fff#\	.
4C 4CC^>/	.	8eJ 8c\	.	16gg\	16ggg\	.
.	.	.	.	16ff#\JJ	16fff#\JJ	.
.	4g^/	8G\L	sf	16gg^\LL	16ggg^\LL	.
.	.	.	.	16ff#\	16fff#\	.
8BB 8BBB^>/	.	8d\J	.	16gg\	16ggg\	.
.	.	.	.	16ff#\JJ	16fff#\JJ	.
*	*v	*v	*	*	*	*
*	*	*	*	*X8va	*
=91	=91	=91	=91	=91	=91
8r	8r	.	8ee'\L	8eee'\L	.
8AAL 8AAA'^>/	8gL 8c#X 8A 8G'^\	.	8gg'\J	8ggg'\J	.
8AAJ 8AAA'^>/	8gJ 8c# 8A 8G'^\	.	(16aa^\LL	(16aaa^\LL	sf
.	.	.	16gg\	16ggg\	.
8r	8r	.	16ff#\	16fff#\	.
.	.	.	16ee\JJ	16eee\JJ	.
!LO:LB:g=original	!LO:LB:g=original	!	!	!	!
=92	=92	=92	=92	=92	=92
*xywh-#8:252,1949,2586,576	*xywh-#8:252,1949,2586,576	*	*	*	*
8FF#L 8FFF#'/	8F#'\L	<	8dd'\L)	8ddd'\L)	.
8AAJ 8AAA'/	8A'\J	.	8dd'\	8ddd'\	.
(16D^/LL	(16d^\LL	[ sf	8b'\	8bb'\	.
16Cn/	16cn\	.	.	.	.
16BB/	16B\	.	8g'\J	8gg'\J	.
16AA/JJ	16A\JJ	.	.	.	.
!	!	!	!LO:LB:g=original	!LO:LB:g=original	!
=93	=93	=93	=93	=93	=93
*	*^	*	*	*	*
*	*	*xywh-#8:252,1949,2586,576	*	*xywh-#9:30,1961,2525,507	*xywh-#9:30,1961,2525,507	*
8GG'/)	4ryy	8G'\L)	.	8r	8r	.
*	*	*	*	*	*8va	*
4E 4EE^>/	.	8e\J	.	16gg\LL	16ggg\LL	.
.	.	.	.	16ff#\JJ	16fff#\JJ	.
.	4g^/	8G\L	sf	16gg^\LL	16ggg^\LL	.
.	.	.	.	16ff#\	16fff#\	.
[8D [8DD^>/	.	8f#J 8d\	.	16gg\	16ggg\	.
.	.	.	.	16ff#\JJ	16fff#\JJ	.
=94	=94	=94	=94	=94	=94	=94
8D] 8DD/]	4g^/	8G\L	sf	16gg^\LL	16ggg^\LL	.
.	.	.	.	16ff#\	16fff#\	.
4C 4CC^>/	.	8eJ 8c\	.	16gg\	16ggg\	.
.	.	.	.	16ff#\JJ	16fff#\JJ	.
.	4g^/	8G\L	sf	16gg^\LL	16ggg^\LL	.
.	.	.	.	16ff#\	16fff#\	.
8BB 8BBB^>/	.	8dJ 8B\	.	16gg\	16ggg\	.
.	.	.	.	16ff#\JJ	16fff#\JJ	.
*	*v	*v	*	*	*	*
=95	=95	=95	=95	=95	=95
8r	8gL 8G'\	<	16gg^\LL	16ggg^\LL	<
.	.	.	16ff#\	16fff#\	.
8AAL 8AAA'/	8gJ 8c#X 8A 8G'\	.	16gg\	16ggg\	.
.	.	[	16aa\JJ	16aaa\JJ	.
8AAJ 8AAA'/	(16aLL 16c# 16A 16G^\	sf	16ccc#X\LL	16cccc#X\LL	[
.	16g\	.	16eee\	16eeee\	.
8r	16f#\	.	16ccc#\	16cccc#\	.
.	16e\JJ	.	16aa\JJ	16aaa\JJ	.
=96	=96	=96	=96	=96	=96
8BB 8BBB'/	8d'\L)	.	16ddd\LL	16dddd\LL	.
.	.	.	16bb\	16bbb\	.
8r	8d 8G 8D'\	.	16gg\	16ggg\	.
.	.	.	16bb\JJ	16bbb\JJ	.
8GG 8GGG'/	8B'\	.	16dd\LL	16ddd\LL	.
.	.	.	16gg\	16ggg\	.
8r	8dJ 8G 8D'\	.	16bb\	16bbb\	.
.	.	.	16ddd\JJ	16dddd\JJ	.
=97	=97	=97	=97	=97	=97
8DL 8DD'/	8r	.	8aa\L	8aaa\L	ff <
8G 8GG'^>/	(16g^\LL	<	8aa 8cc\	8cccc 8aaa 8ccc\	.
.	16f#\)J	.	.	.	.
8F# 8FF#'/	(16f#\L	.	8aa 8cc\	8cccc 8aaa 8ccc\	.
.	16fn\)J	.	.	.	.
8FnJ 8FFn'/	(16f\L	.	8aaJ 8cc\	8ccccJ 8aaa 8ccc\	.
.	16e\JJ)	.	.	.	.
!LO:LB:g=original	!LO:LB:g=original	!	!	!	!
=98	=98	=98	=98	=98	=98
*xywh-#8:243,2474,2580,570	*xywh-#8:243,2474,2580,570	*	*	*	*
8EL 8EE'/	(16e\LL	.	8aaL 8cc\	8ccccL 8aaa 8ccc\	.
.	16e-X\)J	.	.	.	.
8E-XJ 8EE-X'/	(16e-\L	.	8aa 8cc\	8cccc 8aaa 8ccc\	.
.	16d\JJ)	.	.	.	.
!LO:TX:a:i:t=ten.	!	!LO:DY:b=2	!	!	!
4D 4DD^>/	(16d^\LL	[ sf	8bb 8dd^\	8bbb 8ddd^\	[ sf
.	16c#X\J	.	.	.	.
!	!LO:TX:a:i:t=ten.	!LO:DY:b=1	!	!	!
.	8d^\J)	sf	8bbJ 8dd\	8ddddJ 8ddd\	.
!	!	!	!LO:LB:g=original	!LO:LB:g=original	!
=99	=99	=99	=99	=99	=99
*	*	*	*xywh-#9:30,2468,2493,552	*xywh-#9:30,2468,2493,552	*
8DDL 8DDD/	8r	.	8aa\L	8aaa\L	<
8G 8GG'^>/	(16g^\LL	<	8aa 8cc\	8cccc 8aaa 8ccc\	.
.	16f#\)J	.	.	.	.
8F# 8FF#'/	(16f#\L	.	8aa 8cc\	8cccc 8aaa 8ccc\	.
.	16fn\)J	.	.	.	.
8FnJ 8FFn'/	(16f\L	.	8aaJ 8cc\	8ccccJ 8aaa 8ccc\	.
.	16e\JJ)	.	.	.	.
=100	=100	=100	=100	=100	=100
8EL 8EE'/	(16e\LL	.	8aaL 8cc\	8ccccL 8aaa 8ccc\	.
.	16e-X\)J	.	.	.	.
8E-XJ 8EE-X'/	(16e-\L	.	8aa 8cc\	8cccc 8aaa 8ccc\	.
.	16d\JJ)	[	.	.	.
!LO:TX:a:i:t=ten.	!	!LO:DY:b=2	!	!	!
4D 4DD^>/	(16d^\LL	sf	8bb 8dd^\	8bbb 8ddd^\	[ sf
.	16c#X\J	.	.	.	.
!	!LO:TX:a:i:t=ten.	!LO:DY:b=1	!	!	!
.	8d^\J)	sf	8bbJ 8dd\	8ddddJ 8ddd\	.
=101	=101	=101	=101	=101	=101
8r	8r	.	8cc'^\L	8ccc'^\L	.
!	!	!LO:MO:mod=!LO&colon;DY&colon;cj&colon;t=sempre\nff	!	!	!
!	!	!LO:DY:rj:t=sempre ff	!	!	!
8BB-X 8BBB-X'/	8e 8cn 8G'\	ff	(16ee\L	(16eee\L	.
.	.	.	16gg\JJ	16ggg\JJ	.
!LO:TX:a:i:t=ten.	!LO:TX:a:i:t=ten.	!	!	!	!
[4BB- [4BBB-^>/	(4e 4c 4G^\	sf	16ff#^\LL	16fff#^\LL	.
.	.	.	16aa\	16aaa\	.
.	.	.	16gg\	16ggg\	.
.	.	.	16ee\JJ	16eee\JJ	.
=102	=102	=102	=102	=102	=102
8BB-] 8BBB-'/]	8fn'\)	.	8dd'\L)^	8ddd'\L)^	.
!LO:TX:a:i:t=ten.	!LO:TX:a:i:t=ten.	!	!	!	!
(4AA 4AAA^>/	(4f#X 4c 4A^\	sf	(16dd\L	(16ddd\L	.
.	.	.	16ee\JJ	16eee\JJ	.
.	.	.	16dd^\LL	16ddd^\LL	.
.	.	.	16b\	16bb\	.
8GG 8GGG'/)	8g 8d 8Bn'\)	.	16g\JJ)	16gg\JJ)	.
.	.	.	16r	16r	.
=103	=103	=103	=103	=103	=103
8r	8r	.	(16gg^\LL	(16ggg^\LL	.
.	.	.	16ff#\	16fff#\	.
8BB-X 8BBB-X'/	8e 8c 8G'\	.	16gg\	16ggg\	.
.	.	.	16ccc\JJ	16cccc\JJ	.
!LO:TX:a:i:t=ten.	!LO:TX:a:i:t=ten.	!	!	!	!
[4BB- [4BBB-^>/	(4e 4c 4G^\	sf	16eee\LL	16eeee\LL	.
.	.	.	16ggg\	16gggg\	.
.	.	.	16eee\	16eeee\	.
.	.	.	16ccc\JJ	16cccc\JJ	.
!LO:LB:g=original	!LO:LB:g=original	!	!	!	!
=104	=104	=104	=104	=104	=104
*xywh-#8:213,3005,2626,585	*xywh-#8:213,3005,2626,585	*	*	*	*
8BB-] 8BBB-/]	8fn'\)	.	16ddd^\LL	16dddd^\LL	.
.	.	.	16ccc\	16cccc\	.
!LO:TX:a:i:t=ten.	!LO:TX:a:i:t=ten.	!	!	!	!
(4AA 4AAA^>/	(4f#X 4c 4A^\	f	16ff#\	16fff#\	.
.	.	.	16ccc\JJ	16cccc\JJ	.
.	.	.	16dd\)	16ddd\LL	.
.	.	.	16r	16ggg\	.
8GG 8GGG'/)	8g 8d 8Bn'\)	.	8r	16bbb\	.
.	.	.	.	16dddd\JJ)	.
*	*	*	*	*X8va	*
!	!	!	!LO:LB:g=original	!LO:LB:g=original	!
=105	=105	=105	=105	=105	=105
*	*	*	*xywh-#9:42,2993,2514,533	*xywh-#9:42,2993,2514,533	*
!	!	!	!	!LO:TX:t=P:problem=mixed beam	!
!	!LO:TX:b:i:mod= :t=dim._:problem=dynamics with extension lines	!LO:HP:t=dim.:ext=ud	!	!LO:TX:b:i:mod= :t=poco a poco dim._:problem=dynamics with extension lines	!LO:HP:t=poco a poco dim.:ext=ud
8BB-X 8BBB-X'/L	(16g\LL	>	4ryy	(16gg<^/LL	>
.	16f#\J	.	.	16ff#</	.
!	!LO:TX:a:i:t=ten.	!	!	!	!
8r	[8gJ [8e [>8c [8G^\)	.	.	16gg</	.
.	.	.	.	16ccc\JJ	.
8BB-J 8BBB-'/	8g]L 8e] 8c] 8G\]	.	(16ee\LL	16eee\LL	.
.	.	.	16gg\	16ggg\	.
8r	8eJ 8c 8G'\	.	16ee\	16eee\	.
.	.	.	16cc\JJ	16ccc\JJ	.
=106	=106	=106	=106	=106	=106
8AAL 8AAA'/	8fn'\	.	16dd\)	16ddd^\LL	.
.	.	.	16r	16ccc\	.
8r	(4f#X 4c 4A^\	.	8r	16ff#\	.
.	.	.	.	16ccc\JJ	.
8GGJ 8GGG'/	.	.	4r	16dd\LL	.
.	.	.	.	16gg\	.
8r	8g 8d 8Bn'\)	.	.	16bb\	.
.	.	.	.	16ddd\JJ)	.
=107	=107	=107	=107	=107	=107
!	!	!	!	!LO:TX:t=P:problem=mixed beam	!
8GG 8GGG'/	8r	p	8.ryy	(16g<^/LL	p
.	.	.	.	16f#</	.
8r	8cL 8B-X 8E'\	.	.	16g</	.
.	.	.	16r	16cc\JJ	.
8GG 8GGG'/	8r	.	4r	16ee\LL	.
.	.	.	.	16gg\	.
8r	8cJ 8B- 8E'\	.	.	16ee\	.
.	.	.	.	16cc\JJ	.
=108	=108	=108	=108	=108	=108
8GG 8GGG'/	8r	.	4r	16dd^>/LL	.
.	.	.	.	16cc/	.
8r	8cL 8A 8F#'\	.	.	16f#/	.
.	.	.	.	16cc/JJ	.
!	!	!	!	!LO:TX:t=P:problem=mixed beam	!
8GG 8GGG'/	8r	.	16ryy	16d</LL	.
.	.	.	16r	16g\	.
8r	8BnJ 8G'\	.	8r	16b\	.
.	.	]]	.	16dd\JJ)	]]
=109	=109	=109	=109	=109	=109
!	!	!	!	!LO:TX:t=P:problem=mixed beam	!
8GGL 8GGG/	8r	pp	2ryy	(16g<^<</LL	pp
.	.	.	.	16f#</	.
8GG 8GGG/	8cL 8B-X 8E'\	.	.	16g</	.
.	.	.	.	16cc\JJ	.
8GG 8GGG/	8cJ 8B- 8E'\	.	.	16ee\LL	.
.	.	.	.	16gg\	.
8GGJ 8GGG/	8r	.	.	16ee\	.
.	.	.	.	16cc\JJ	.
=110	=110	=110	=110	=110	=110
8GGL 8GGG/	2r	.	2ryy	16dd^\LL	.
.	.	.	.	16b\	.
8GG 8GGG/	.	.	.	16g\	.
.	.	.	.	16b\JJ	.
!	!	!	!	!LO:TX:t=P:problem=mixed beam	!
8GG 8GGG/	.	.	.	16d</LL	.
.	.	.	.	16f#\	.
8GGJ 8GGG/	.	.	.	16a\	.
.	.	.	.	16cc\JJ)	.
!	!	!	!LO:MO:null:mod=*clefF4	!	!
*	*	*	*null	*	*
!LO:PB:g=original	!LO:PB:g=original	!	!LO:PB:g=original	!LO:PB:g=original	!
=111||	=111||	=111||	=111||	=111||	=111||
!	!	!	!LO:MO:null:mod=*null	!	!
*	*	*	*clefF4	*	*
*k[b-e-]	*k[b-e-]	*	*k[b-e-]	*k[b-e-]	*
*	*	*	*^	*	*
*xywh-#10:309,253,2574,644	*xywh-#10:309,253,2574,644	*	*xywh-#11:176,301,2508,633	*xywh-#11:176,301,2508,633	*xywh-#11:176,301,2508,633	*
*	*	*	*	*cue	*	*
!	!	!	!LO:TX:a:t=Secondo.	!	!	!
8GGL 8GGG/	2r	pp	2r	8GGL 8GGG\	2r	.
8GG 8GGG/	.	.	.	8GG 8GGG\	.	.
8GG 8GGG/	.	.	.	8GG 8GGG\	.	.
8GGJ 8GGG/	.	.	.	8GGJ 8GGG\	.	.
=112	=112	=112	=112	=112	=112	=112
*	*	*	*	*^	*	*
*	*	*	*	*	*cue	*	*
8GGL 8GGG/	8D\L	.	2rd	8GGL 8GGG\	8D/L	2r	.
8GG 8GGG/	8D\	.	.	8GG 8GGG\	8D/	.	.
8GG 8GGG/	8D\	.	.	8GG 8GGG\	8D/	.	.
8GGJ 8GGG/	8D\J	.	.	8GGJ 8GGG\	8D/J	.	.
=113	=113	=113	=113	=113	=113	=113	=113
*	*	*	*	*tremolo	*	*	*
8GGL 8GGG/	8GL 8D\	.	2rf	8GGL 8GGG\	8GL 8D/	2r	.
8GG 8GGG/	8G 8D\	.	.	8GG 8GGG\	8G 8D/	.	.
8GG 8GGG/	8G 8D\	.	.	8GG 8GGG\	8G 8D/	.	.
8GGJ 8GGG/	8GJ 8D\	.	.	8GGJ 8GGG\	8GJ 8D/	.	.
=114	=114	=114	=114	=114	=114	=114	=114
*	*	*	*	*	*tremolo	*	*
8GGL 8GGG/	8dL 8G 8D\	.	2rcc	8GGL 8GGG\	8dL 8G 8D/	2r	.
8GG 8GGG/	8d 8G 8D\	.	.	8GG 8GGG\	8d 8G 8D/	.	.
8GG 8GGG/	8d 8G 8D\	.	.	8GG 8GGG\	8d 8G 8D/	.	.
8GGJ 8GGG/	8dJ 8G 8D\	.	.	8GGJ 8GGG\	8dJ 8G 8D/	.	.
*	*	*	*	*Xcue	*Xcue	*	*
*	*	*	*clefG2	*Xtremolo	*Xtremolo	*	*
*	*	*	*v	*v	*v	*	*
=115	=115	=115	=115	=115	=115
8GGL 8GGG/'	8dL 8B-'\	.	4r	(16g/LL	pp
.	.	.	.	16a/	.
8D/'	8d'\	.	.	16b-/	.
.	.	.	.	16cc/JJ	.
8C/'	8c'\	.	8f#X/L	8dd'\L)	.
8AA/J'	8A'\J	.	8f#/J	8dd'\J	.
=116	=116	=116	=116	=116	=116
8GG/L'	8G'\L	.	8b-L 8g/	8gg'\L	.
8BB-/'	8B-'\	.	8g 8d/	8dd'\	.
8AA/'	8A'\	.	8a 8d^>/	(8.dd^\	.
8FFn/J'	8Fn'\J	.	8aJ 8d/	.	.
.	.	.	.	16cc\Jk	.
!LO:LB:g=original	!LO:LB:g=original	!	!	!	!
=117	=117	=117	=117	=117	=117
*xywh-#10:303,875,2586,538	*xywh-#10:303,875,2586,538	*	*	*	*
8EEn/L'	8En'\L	.	8c#X/L	8b-'\L)	.
!	!	!	!	!LO:TUP:a	!
8GG/'	8G'\	.	8c#/	(24b-\L	.
.	.	.	.	24cc\	.
.	.	.	.	24b-\JJ	.
8FF#X/'	8F#X'\	.	8cn/	8a'/L)	.
8DD/J'	8D'\J	.	8c/J	8f#X'/J	.
=118	=118	=118	=118	=118	=118
8CC/L'	8C'/L	.	4B-/	4g/	.
8EE-X/'	8E-X'/	.	.	.	.
8DD/'	8D'/	.	4d^>/	4r	.
8BBB-/J'	8BB-'/J	.	.	.	.
!	!	!	!LO:LB:g=original	!LO:LB:g=original	!
=119	=119	=119	=119	=119	=119
*	*	*	*xywh-#11:140,890,2540,535	*xywh-#11:140,890,2540,535	*
8GGL 8GGG/	(4G\	>	(16g/LL	(16gg\LL	.
.	.	.	16a/	16aa\	.
8GG 8GGG/	.	.	16b-/	16bb-\	.
.	.	.	16cc/JJ	16ccc\JJ	.
8GG 8GGG/	8f#XL 8F#X\	.	8dd'\L)	8ddd'\L)	.
8GGJ 8GGG/	8fnJ 8Fn\	.	8dd'\J	8ddd'\J	.
=120	=120	=120	=120	=120	=120
8GGL 8GGG/	4en 4En\	.	8gg'\L	8ggg'\L	.
8GG 8GGG/	.	.	8dd'\J	8ddd'\J	.
8GG 8GGG/	4e-X 4E-X\	.	(8.dd^\L	(8.ddd^\L	.
8GGJ 8GGG/	.	.	.	.	.
.	.	.	16cc\Jk	16ccc\Jk	.
=121	=121	=121	=121	=121	=121
8GGL 8GGG/	4d 4D\	.	8b-'\L)	8bb-'\L)	.
!	!	!	!LO:TUP:a	!LO:TUP:a	!
8GG 8GGG/	.	.	(24b-\L	(24bb-\L	.
.	.	.	24cc\	24ccc\	.
.	.	.	24b-\JJ	24bb-\JJ	.
8GG 8GGG/	8c#XL 8C#X\	.	8a'/L)	8aa'\L)	.
8GGJ 8GGG/	8cnJ 8Cn\	.	8f#X'/J	8ff#X'\J	.
=122	=122	=122	=122	=122	=122
8GGL 8GGG/	4B- 4BB-\	.	4g/	4gg\	.
8GG 8GGG/	.	.	.	.	.
8GG 8GGG/	4A 4AA\)	]]	4a 4d^>/	4aa^\	.
8GGJ 8GGG/	.	.	.	.	.
!LO:LB:g=original	!LO:LB:g=original	!	!	!	!
=123	=123	=123	=123	=123	=123
*xywh-#10:303,1413,2563,473	*xywh-#10:303,1413,2563,473	*	*	*	*
!	!	!LO:DY:t=sempre pp	!	!	!
8FF/L	8AL 8D\	pp	(16d/LL	(16dd\LL	.
.	.	.	16en/	16een\	.
8FF/	8A 8D\	.	16f/	16ff\	.
.	.	.	16g/JJ	16gg\JJ	.
8C#X 8EEn/	8A 8G\	.	8a'/L)	8aa'\L)	.
8C#J 8EE/	8AJ 8G\	.	8a'/J	8aa'\J	.
=124	=124	=124	=124	=124	=124
8DL 8DD/	8AL 8F\	.	8dd'/L	8ddd'\L	.
8D 8DD/	8A 8F\	.	8a'/	8aa'\	.
8AA 8DD/	8c#X 8En\	.	(8.a^>/	(8.aa^\	.
8AAJ 8DD/	8c#J 8E\	.	.	.	.
.	.	.	16g/Jk	16gg\Jk	.
=125	=125	=125	=125	=125	=125
*	*	*	*xywh-#11:140,1418,2577,515	*xywh-#11:140,1418,2577,515	*
!	!	!	!LO:LB:g=original	!LO:LB:g=original	!
8AAL 8DD/	8dL 8F\	.	8f'/L)	8ff'\L)	.
!	!	!	!LO:TUP:b	!LO:TUP:a	!
8AA 8DD/	8A 8F\	.	(24f/L	(24ff\L	.
.	.	.	24g/	24gg\	.
.	.	.	24f/JJ	24ff\JJ	.
8AA 8DD/	8A 8G\	.	8en'/L)	8een'\L)	.
8AAJ 8DD/	8AJ 8G\	.	8c#X'/J	8cc#X'\J	.
=126	=126	=126	=126	=126	=126
8AAL 8DD/	8AL 8F\	.	4d/	4dd\	.
8AA 8DD/	8A 8F\	.	.	.	.
8AA 8DD/	8A 8G\	.	4a^>/	4r	.
8AAJ 8DD/	8AJ 8G\	.	.	.	.
=127	=127	=127	=127	=127	=127
8DL 8DD/	8AL 8F\	.	(16d/LL	(16dd\LL	.
.	.	.	16en/	16een\	.
8D 8DD/	8A 8F\	.	16f/	16ff\	.
.	.	.	16g/JJ	16gg\JJ	.
8Cn 8CCn/	8A 8En\	.	8a'/L)	8aa'\L)	.
8CJ 8CC/	8AJ 8E\	.	8a'/J	8aa'\J	.
=128	=128	=128	=128	=128	=128
8BBnL 8BBBn/	8AL 8F\	.	8dd'/L	8ddd'\L	.
8BB 8BBB/	8A 8F\	.	8a'/	8aa'\	.
8C#X 8CC#X/	8A 8En\	.	(8.a^>/	(8.aa^\	.
8C#J 8CC#/	8AJ 8E\	.	.	.	.
.	.	.	16g/Jk	16gg\Jk	.
!LO:LB:g=original	!LO:LB:g=original	!	!	!	!
=129	=129	=129	=129	=129	=129
*xywh-#10:205,1886,2660,564	*xywh-#10:205,1886,2660,564	*	*	*	*
8DL 8DD'/	8AL 8F'\	.	8f'/L)	8ff'\L)	.
8FF 8FFF'/	8A 8D'\	.	(16f/L	(16ff\L	.
.	.	.	16a/JJ	16aa\JJ	.
8r	8r	.	8g'/L)	8gg'\L)	.
8GGJ 8GGG'/	8B-J 8En'\	.	8en'/J	8een'\J	.
=130	=130	=130	=130	=130	=130
8r	8r	.	(16f/LL	(16ff\LL	.
.	.	.	16en/J	16een\J	.
8GG#X 8GGG#X'/	8Bn 8F'\	.	8d'/J)	8dd'\J)	.
!LO:TX:a:i:t=ten.	!LO:TX:a:i:t=ten.	!	!	!	!
4AA 4AAA^>;/	4c#X 4En;^\	.	4a 4e^>;/	4aa 4cc#X^;\	.
!	!LO:TX:b:i:rj:t=très long.:mod=très long	!	!	!LO:TX:b:i:rj:t=très long	!
!	!	!	!LO:LB:g=original	!LO:LB:g=original	!
=131	=131	=131	=131	=131	=131
*	*	*	*xywh-#11:110,1933,2606,527	*xywh-#11:110,1933,2606,527	*
16DD/LL	8dL 8F\	p	2r	8r	.
16AA/	.	.	.	.	.
.	8qf/	.	.	.	.
16DD/	8en 8G^\	.	.	(16a/LL	p
16AA/JJ	.	.	.	16b-/JJ	.
16AAA/LL	8d 8F\	.	.	4a^>/)	.
16AA/	.	.	.	.	.
16AAA/	8c#XJ 8En\	.	.	.	.
16AA/JJ	.	.	.	.	.
=132	=132	=132	=132	=132	=132
16DD/LL	8dL 8F\	.	8f/L	8dd\L	.
16AA/	.	.	.	.	.
.	.	.	.	(8qff/	.
16DD/	8G^\	.	8g 8en^>/	8een^\)	.
16AA/JJ	.	.	.	.	.
16AAA/LL	8F\	.	8f 8d/	8dd\	.
16AA/	.	.	.	.	.
16AAA/	8En\J	.	8eJ 8c#X/	8cc#X\J	.
16AA/JJ	.	.	.	.	.
=133	=133	=133	=133	=133	=133
8DD'/L	8AL 8F'\	.	8fL 8d'/	8dd'\L	<
8AA 8DD'^>/	8d 8F'^\	.	8f'/	8ff'\	.
8r	8d 8F'\	.	(8.a/	(8.aa\^	.
8AAJ 8AAA'^>/	8c#XJ 8En'^\	.	.	.	[
.	.	.	16g/Jk	16gg\Jk	.
=134	=134	=134	=134	=134	=134
8r	8dL 8F'\	.	8f'/L)	8ff'\L)	.
8AAL 8DD'/	8A 8F'\	.	8f'/J	8ff'\J	.
8AA 8AAA'/	8A 8G'\	.	(16en/LL	(16een\LL	.
.	.	.	16c#X/J	16cc#X\J	.
8AAJ 8DD'/	8AJ 8F'\	.	8d'/J)	8dd'\J)	.
!LO:LB:g=original	!LO:LB:g=original	!	!	!	!
=135	=135	=135	=135	=135	=135
*xywh-#10:240,2415,2634,552	*xywh-#10:240,2415,2634,552	*	*	*	*
!	!LO:TX:b:i:mod= :t=cresc._:problem=dynamics with extension lines	!LO:HP:t=cresc.:ext=ud	!	!	!
16GG/LL	8B-L 8G\	<	8g/L	8r	.
16D/	.	.	.	.	.
.	.	.	(8qb-/	.	.
!	!	!	!	!LO:TX:b:i:mod= :t=cresc._:problem=dynamics with extension lines	!LO:HP:t=cresc.:ext=ud
16GG/	8c 8A^\	.	8a^/)	(16dd\LL	<
16D/JJ	.	.	.	16ee-X\JJ	.
16DD/LL	8B- 8G\	.	8g/	4dd^\)	.
16D/	.	.	.	.	.
16DD/	8AJ 8F#X\	.	8f#X/J	.	.
16D/JJ	.	.	.	.	.
=136	=136	=136	=136	=136	=136
16GG/LL	8B-L 8G\	.	8g/	8gg\L	.
16D/	.	.	.	.	.
.	.	.	.	(8qbb-/	.
16GG/	8c 8A^\	.	4dd 4d^>/	8aa\)	.
16D/JJ	.	.	.	.	.
16DD/LL	8B- 8G\	.	.	8gg\	.
16D/	.	.	.	.	.
16DD/	8AJ 8F#X\	.	8dd 8d^>/	8ff#X\J	.
16D/JJ	.	.	.	.	.
!	!	!	!LO:LB:g=original	!LO:LB:g=original	!
=137	=137	=137	=137	=137	=137
*	*	*	*xywh-#11:120,2451,2609,564	*xywh-#11:120,2451,2609,564	*
8GG'/L	8B-L 8G\	.	8g'\L	8gg'\L	.
8D 8GG'^>/	8B- 8G'^\	.	8b-'\	8bb-'\	.
8r	8r	.	(8.dd^\	(8.ddd\^	.
8CJ 8CC'^>/	8gJ 8e- 8G'^\	.	.	.	.
.	.	.	16cc\Jk	16ccc\Jk	.
=138	=138	=138	=138	=138	=138
8r	8r	.	8b-'\L)	8bb-'\L)	.
8DL 8GG'/	8dL 8B-'\	.	8b-'\J	8bb-'\J	.
8D 8DD'/	8c 8A'\	.	(16a/LL	(16aa\LL	.
.	.	.	16f#X/J	16ff#X\J	.
8DJ 8GG'/	8dJ 8B-'\	[[	8g'/J)	8gg'\J)	[[
=139	=139	=139	=139	=139	=139
16CC/LL	8cL 8E-\	f	8g/L	8cc\L	f
16GG/	.	.	.	.	.
.	.	.	.	8qee-/	.
16CC/	8d 8F^\	.	8g 8fn^>/	8dd^\	.
16GG/JJ	.	.	.	.	.
16GGG/LL	8c 8E-\	.	8e-/	8cc\	.
16GG/	.	.	.	.	.
16GGG/	8BnJ 8D\	.	8gJ 8d^>/	8bn\J	.
16GG/JJ	.	.	.	.	.
=140	=140	=140	=140	=140	=140
!	!	!	!LO:TX:t=P:problem=mixed beam	!	!
16CC/LL	8cL 8E-\	<	8e-/L	8cc/L	.
16GG/	.	.	.	.	.
16CC/	8d 8F^\	.	16dd>Jk 16f>\	16r	.
16GG/JJ	.	.	16r>	16dddJk 16ff/	.
16GGG/LL	8c 8E-\	.	16cc>LL 16e->\	16r	<
16GG/	.	.	16r>	16cccLL 16ee-/	.
16GGG/	8BnJ 8D\	[[	16bn>JJ 16d>\	16r	.
16GG/JJ	.	.	16r>	16bbnJJ 16dd/	[[
!LO:LB:g=original	!LO:LB:g=original	!	!	!	!
=141	=141	=141	=141	=141	=141
*xywh-#10:226,2968,2648,555	*xywh-#10:226,2968,2648,555	*	*	*	*
8CC'/L	8cL 8E-'\	ff	8ccL 8e-'/	8ccc'L 8ee-\	ff <
8GGJ 8CC'^>/	8cJ 8E-'^\	.	8ee-J 8g'/	8eee-'J 8gg\	.
8r	8r	.	(8.ggL 8.ee-^\	(8.gggL 8.eee-^\	[ sf
8GG 8GGG'^>/	8g 8e- 8G'^\	.	.	.	.
.	.	.	16ffJk 16dd\	16fffJk 16ddd\	.
!	!	!	!LO:LB:g=original	!LO:LB:g=original	!
=142	=142	=142	=142	=142	=142
*	*	*	*xywh-#11:83,3013,2646,505	*xywh-#11:83,3013,2646,505	*
8r	8r	.	8ee-L 8cc'\)	8eee-L 8ccc'\)	.
8AAL 8AAA^>/	8gL 8e- 8G^\	<	8ee- 8cc'\	8eee-J 8ccc'\	.
8BBn 8BBBn^>/	8g 8f 8d 8G^\	.	8dd'\	(16ddd\LL	.
.	.	.	.	16gg\J	.
8CJ 8CC^>/	8gJ 8e- 8c 8G^\	[[	8cc'\J	8ccc'\J)	.
=143	=143	=143	=143	=143	=143
8DL 8DD'/	8dL 8B-'\	sf <	(8.b-L 8.g^>/	(8.bb-L 8.gg^\	.
(16DD/L	(16D\L	.	.	.	.
16EEn/JJ	16En\JJ	.	16dd/Jk	16ddd\Jk	.
16FF#X/LL	16F#X\LL	.	16cc/LL	16ccc\LL	.
16GG/	16G\	.	16b-/	16bb-\	.
16AA/	16A\	.	16a/	16aa\	.
16BB-/JJ	16B-\JJ	.	16g/JJ	16gg\JJ	.
=144	=144	=144	=144	=144	=144
8C/L)	8c\L)	.	8b-'/L)	8bb-'\L)	.
8C#X 8CC#X'/	8c#X'\	.	8b-'/J	8bb-'\J	.
8D 8DD'/	8d'\	.	16a/LL	(16aa\LL	.
.	.	.	16f#X/J	16ff#X\J	.
8E-XJ 8EE-'/	8e-X'\J	[[	8g'/J	8gg'\J)	.
=145	=145	=145	=145	=145	=145
8DL 8DD'/	8dL 8B-'\	sf <	(8.b-L 8.g^>/	(8.bb-L 8.gg^\	.
(16DD/L	(16D\L	.	.	.	.
16EEn/JJ	16En\JJ	.	16dd/Jk	16ddd\Jk	.
16FF#X/LL	16F#X\LL	.	16cc/LL	16ccc\LL	.
16GG/	16G\	.	16b-/	16bb-\	.
16AA/	16A\	.	16a/	16aa\	.
16BB-/JJ	16B-\JJ	.	16g/JJ	16gg\JJ	.
=146	=146	=146	=146	=146	=146
8C/L)	8c\L)	.	8b-'/L)	8bb-'\L)	.
8C#X 8CC#X'/	8c#X'\	.	8b-'/J	8bb-'\J	.
8D 8DD'/	8d'\	.	(16a/LL	(16aa\LL	.
.	.	.	16f#X/J	16ff#X\J	.
8E-XJ 8EE-X'/	8e-X'\J	[[	8g'/J)	8gg'\J)	.
!LO:PB:g=original	!LO:PB:g=original	!	!LO:PB:g=original	!LO:PB:g=original	!
=147	=147	=147	=147	=147	=147
*xywh-#12:339,251,2535,657	*xywh-#12:339,251,2535,657	*	*xywh-#13:112,453,2501,478	*xywh-#13:112,453,2501,478	*
*8ba	*	*	*	*	*
8FFF#X'/L	8r	.	8f#X'/L	8ff#X'\L	.
8DDD'^>/	8c 8A 8D'\	sf	8d'^>/J	8dd'^\J	sf
8GGG'/	8r	.	(16b-/LL	(16bb-\LL	.
.	.	.	16a/J	16aa\J	.
8DDD'^>/J	8d 8B- 8G 8D'\	sf	8g'/J)	8gg'\J)	.
=148	=148	=148	=148	=148	=148
8AAA'/L	8r	.	8a'/L	8aa'\L	.
8DDD'^>/	8d 8c 8F#X 8D'^\	sf	8dd'^>/J	8ddd'^\J	sf
8BBB-'/	8r	.	(16b-/LL	(16bb-\LL	.
.	.	.	16a/J	16aa\J	.
8DDD'^>/J	8d 8B- 8G 8D'^\	sf	8g'/J)	8gg'\J)	.
=149	=149	=149	=149	=149	=149
8CC'/L	8r	.	8f#X'/L	8ff#X'\L	.
8DDD'^>/	8A 8F#X 8D'\	sf	8d'^>/J	8dd'^\J	sf
8BBB-'/	8r	.	(16b-/LL	(16bb-\LL	.
.	.	.	16a/J	16aa\J	.
8DDD'^>/J	8d 8B- 8G 8D'^\	sf	8g'/J)	8gg'\J)	.
=150	=150	=150	=150	=150	=150
8AAA'/L	8r	.	(16f#X/LL	(16ff#X\LL	.
.	.	.	16d/J	16dd\J	.
8DDD'/J	8c 8F#X 8D'^\	sf	8f#'/J)	8ff#'\J)	.
*X8ba	*	*	*	*	*
8GG 8GGG'/	8d 8B- 8G 8D'^\	sf	4g^>/	4gg^\	sf
8r	8r	.	.	.	.
=151	=151	=151	=151	=151	=151
8GGL 8GGG/	(8.B-^\L	sf	(8.b-L 8.g^\	(8.bb-L 8.gg^\	sf
8GG 8GGG/	.	.	.	.	.
!	!	!LO:DY:t=sempre ff	!	!	!LO:DY:t=sempre ff
.	16d\Jk	ff	16dd\Jk	16ddd\Jk	ff
8GG 8GGG/	16c\LL	.	16cc/LL	16ccc\LL	.
.	16B-\	.	16b-/	16bb-\	.
8GGJ 8GGG/	16A\	.	16a/	16aa\	.
.	16G\JJ	.	16g/JJ	16gg\JJ	.
=152	=152	=152	=152	=152	=152
8GGL 8GGG/	8B-'\L)	.	8b-'\L)	8bb-'\L)	.
8GG 8GGG/	8B-'\J	.	8b-'\J	8bb-'\J	.
8GG 8GGG/	(16A\LL	.	(16a/LL	(16aa\LL	.
.	16F#X\J	.	16f#X/J	16ff#X\J	.
8GGJ 8GGG/	8G'\J)	.	8g'/J)	8gg'\J)	.
!	!	!	!LO:LB:g=original	!LO:LB:g=original	!
=153	=153	=153	=153	=153	=153
*	*	*	*xywh-#13:105,931,2508,478	*xywh-#13:105,931,2508,478	*
8GGL 8GGG/	(2fn 2Fn^\	sf	(8.b-^\L	(8.bb-^\L	sf
8GG 8GGG/	.	.	.	.	.
.	.	.	16dd\Jk	16ddd\Jk	.
8GG 8GGG/	.	.	16cc/LL	16ccc\LL	.
.	.	.	16b-/	16bb-\	.
8GGJ 8GGG/	.	.	16a/	16aa\	.
.	.	.	16g/JJ	16gg\JJ	.
!LO:LB:g=original	!LO:LB:g=original	!	!	!	!
=154	=154	=154	=154	=154	=154
*xywh-#12:348,857,2529,527	*xywh-#12:348,857,2529,527	*	*	*	*
8GGL 8GGG/	4en 4En\	.	8b-'\L)	8bb-'\L)	.
8GG 8GGG/	.	.	8b-'\J	8bb-'\J	.
8GG 8GGG/	4e-X 4E-X\	.	(16a/LL	(16aa\LL	.
.	.	.	16f#X/J	16ff#X\J	.
8GGJ 8GGG/	.	.	8g'/J)	8gg'\J)	.
=155	=155	=155	=155	=155	=155
*	*^	*	*	*	*
*	*	*xywh-#12:348,857,2529,527	*	*	*	*
8GGL 8GGG/	8d'/L)	4D\	.	8f#X'/	8ff#X'\L	.
8GG 8GGG/	8d'/J	.	.	8r	8dd'^\J	sf
8GG 8GGG/	(4c#X 4C#X\	4ryy	.	(16b-/LL	(16bb-\LL	.
.	.	.	.	16a/J	16aa\J	.
8GGJ 8GGG/	.	.	.	8g'/J)	8gg'\J)	.
*	*v	*v	*	*	*	*
=156	=156	=156	=156	=156	=156
8GGL 8GGG/	4cn 4Cn\	.	8a'\L	8aa'\L	.
8GG 8GGG/	.	.	8dd'^\J	8ddd'^\J	sf
8GG 8GGG/	4B- 4BB-\	.	(16b-/LL	(16bb-\LL	.
.	.	.	16a/J	16aa\J	.
8GGJ 8GGG/	.	.	8g'/J)	8gg'\J)	.
=157	=157	=157	=157	=157	=157
8GGL 8GGG/	4A 4AA\	.	8f#X'/L	8ff#X'\L	.
8GG 8GGG/	.	.	8d'/J	8dd'^\J	sf
!LO:TX:a:i:t=m.g.	!LO:TX:t=P:problem=klamra łącząca dźwięk GG	!	!	!	!
8GG 8GGG/	4G 4GG/	.	(16b-/LL	(16bb-\LL	.
.	.	.	16a/J	16aa\J	.
8GGJ 8GGG/	.	.	8g'/J)	8gg'\J)	.
=158	=158	=158	=158	=158	=158
8GGL 8GGG/	4A 4AA\	.	(16f#X/LL	(16ff#X\LL	.
.	.	.	16d/J	16dd\J	.
8GG 8GGG/	.	.	8f#'/J)	8ff#'\J)	.
8GG 8GGG/	4B- 4BB-\)	.	4g^>/	4gg^\	sf
8GGJ 8GGG/	.	.	.	.	.
!	!	!	!LO:LB:g=original	!LO:LB:g=original	!
=159	=159	=159	=159	=159	=159
*	*	*	*xywh-#13:105,1409,2465,519	*xywh-#13:105,1409,2465,519	*
8GGL 8GGG/	(2d\	p <	2r	(8.b-^\L	p
8GG 8GGG/	.	.	.	.	.
.	.	.	.	16dd\Jk	.
8GG 8GGG/	.	.	.	16cc/LL	.
.	.	.	.	16b-/	.
8GGJ 8GGG/	.	.	.	16a/	.
.	.	.	.	16g/JJ	.
=160	=160	=160	=160	=160	=160
8GGL 8GGG/	4c#X\	.	2r	8b-'\L)	.
8GG 8GGG/	.	.	.	8b-'\J	.
8GG 8GGG/	4d\)	.	.	(16a/LL	.
.	.	.	.	16f#X/J	.
8GGJ 8GGG/	.	.	.	8g'/J)	.
=161	=161	=161	=161	=161	=161
8GGL 8GGG/	(2f^\	.	2r	(8.b-^\L	.
8GG 8GGG/	.	.	.	.	.
.	.	.	.	16dd\Jk	.
8GG 8GGG/	.	.	.	16cc/LL	.
.	.	.	.	16b-/	.
8GGJ 8GGG/	.	[[	.	16a/	.
.	.	.	.	16g/JJ	.
!LO:LB:g=original	!LO:LB:g=original	!	!	!	!
=162	=162	=162	=162	=162	=162
*xywh-#12:348,1384,2508,575	*xywh-#12:348,1384,2508,575	*	*	*	*
8GGL 8GGG/	4en\	>	2r	8b-'\L)	.
8GG 8GGG/	.	.	.	8b-'\J	.
8GG 8GGG/	4e-X\	.	.	(16a/LL	.
.	.	.	.	16f#X/J	.
8GGJ 8GGG/	.	.	.	8g'/J)	.
=163	=163	=163	=163	=163	=163
8GGL 8GGG/	8d'\L)	.	2r	8f#X'/	.
8GG 8GGG/	8d'\J	.	.	8r	.
8GG 8GGG/	(4c#X\	]]	.	(16b-/LL	.
.	.	.	.	16a/J	.
8GGJ 8GGG/	.	.	.	8g'/J)	.
=164	=164	=164	=164	=164	=164
8GGL 8GGG/	4cn\	.	2r	8a'\L	.
8GG 8GGG/	.	.	.	8dd'\J	.
8GG 8GGG/	4B-\	.	.	(16b-/LL	.
.	.	.	.	16a/J	.
8GGJ 8GGG/	.	.	.	8g'/J)	.
=165	=165	=165	=165	=165	=165
8GGL 8GGG/	4A\	.	2r	8f#X'/L	.
8GG 8GGG/	.	.	.	8d'/J	.
8GG 8GGG/	4G\	.	.	(16b-/LL	.
.	.	.	.	16a/J	.
8GGJ 8GGG/	.	.	.	8g'/J)	.
!	!	!	!LO:LB:g=original	!LO:LB:g=original	!
=166	=166	=166	=166	=166	=166
*	*	*	*xywh-#13:40,1928,2530,547	*xywh-#13:40,1928,2530,547	*
8GGL 8GGG/	4A\	.	2r	(16f#X/LL	.
.	.	.	.	16d/J	.
8GG 8GGG/	.	.	.	8f#'/J)	.
8GG 8GGG/	4B-\)	.	.	8g'\L	.
8GGJ 8GGG/	.	.	.	8gg'\J	.
=167	=167	=167	=167	=167	=167
!	!	!LO:DY:t=pp sempre accel. sin al Tempo I.	!	!	!
8GGL 8GGG'/	(16f#XLL 16c^\	pp	4r	4r	.
.	16d\J	.	.	.	.
8GG 8GGG'/	8f#\J)'	.	.	.	.
*	*	*	*	*8va	*
!	!	!	!	!	!LO:DY:t=pp sempre accel. sin al Tempo I.
8r	8g'L 8Bn\	.	8gg'\	8ggg'\L	pp
8GGJ 8GGG'/	8g'J 8B\	.	8r	8ggggJ 8ggg'\	.
=168	=168	=168	=168	=168	=168
8GGL 8GGG'/	(16enLL 16B-X\	.	4r	4r	.
.	16c\J	.	.	.	.
8GG 8GGG'/	8e\J)'	.	.	.	.
8r	8fn'L 8A\	.	8ff'\	8fff'\L	.
8GGJ 8GGG'/	8f'J 8A\	.	8r	8ffffJ 8fff'\	.
!LO:LB:g=original	!LO:LB:g=original	!	!	!	!
=169	=169	=169	=169	=169	=169
*xywh-#12:281,1935,2574,548	*xywh-#12:281,1935,2574,548	*	*	*	*
8r	(16d^LL 16A-X\	.	4r	4r	.
.	16B-\J	.	.	.	.
8GGL 8GGG'/	8d\J)'	.	.	.	.
8r	8e-X'L 8G\	.	8ee-'\	8eee-'\L	.
8GGJ 8GGG'/	8e-'J 8G\	.	8r	8eeee-J 8eee-'\	.
=170	=170	=170	=170	=170	=170
8r	(16c#X^LL 16F#X\	.	4r	4r	.
.	16A\J	.	.	.	.
8GGL 8GGG'/	8c#\J')	.	.	.	.
8GG 8GGG'/	8d'L 8Fn\	.	8dd'\	8ddd'\L	.
8GGJ 8GGG'/	8d'J 8F\	.	8r	8ddddJ 8ddd'\	.
=171	=171	=171	=171	=171	=171
8GGL 8GGG'/	(16f#X^LL 16c\	.	4r	4r	.
.	16d\J	.	.	.	.
8GG 8GGG'/	8f#\J)'	.	.	.	.
8r	8g'L 8Bn\	.	8gg'\	8ggg'\L	.
8GGJ 8GGG'/	8g'J 8B\	.	8r	8ggggJ 8ggg'\	.
=172	=172	=172	=172	=172	=172
8GGL 8GGG'/	(16en^LL 16B-X\	.	4r	4r	.
.	16c\J	.	.	.	.
8GG 8GGG'/	8e\J)'	.	.	.	.
8r	8fn'L 8A\	.	8ff'\	8fff'\L	.
8GGJ 8GGG'/	8f'J 8A\	.	8r	8ffffJ 8fff'\	.
=173	=173	=173	=173	=173	=173
8r	(16d^LL 16A-X\	.	4r	4r	.
.	16B-\J	.	.	.	.
8GGL 8GGG'/	8d\J)'	.	.	.	.
8r	8e-X'L 8G\	.	8ee-'\	8eee-'\L	.
8GGJ 8GGG'/	8e-'J 8G\	.	8r	8eeee-J 8eee-'\	.
!	!	!	!LO:LB:g=original	!LO:LB:g=original	!
=174	=174	=174	=174	=174	=174
*	*	*	*xywh-#13:40,2476,2609,533	*xywh-#13:40,2476,2609,533	*
8r	(16c#XLL 16F#X\	.	4r	4r	.
.	16A\J	.	.	.	.
8GGL 8GGG'/	8c#\J)'	.	.	.	.
8GG 8GGG'/	8d'L 8Fn\	.	8dd'\	8ddd'\L	.
8GGJ 8GGG'/	8d'J 8F\	.	8r	8ddddJ 8ddd'\	.
*	*	*	*	*X8va	*
=175	=175	=175	=175	=175	=175
8GGL 8GGG'/	(16BnLL 16F\	.	4r	4r	.
.	16G\J	.	.	.	.
8GG 8GGG'/	8B\J)'	.	.	.	.
8r	8c'L 8E-\	.	8g'/	8gg'\L	.
8GGJ 8GGG'/	8c'J 8E-\	.	8r	8gggJ 8gg'\	.
!LO:LB:g=original	!LO:LB:g=original	!	!	!	!
=176	=176	=176	=176	=176	=176
*xywh-#12:281,2450,2574,560	*xywh-#12:281,2450,2574,560	*	*	*	*
8r	(16c#XLL 16F#X\	.	4r	4r	.
.	16A\J	.	.	.	.
8GGL 8GGG'/	8c#'\J)	.	.	.	.
*	*	*	*	*8va	*
8GG 8GGG'/	8dL 8Fn'\	.	8dd'\	8ddd'\L	.
8GGJ 8GGG'/	8dJ 8F'\	.	8r	8ddddJ 8ddd'\	.
*	*	*	*	*X8va	*
=177	=177	=177	=177	=177	=177
8GGL 8GGG'/	(16BnLL 16F\	.	4r	4r	.
.	16G\J	.	.	.	.
8GG 8GGG'/	8B'\J)	.	.	.	.
8r	8cL 8E-'\	.	8g'/	8gg'\L	.
8GGJ 8GGG'/	8cJ 8E-'\	.	8r	8gggJ 8gg'\	.
=178	=178	=178	=178	=178	=178
8r	(16c#XLL 16F#X\	.	4r	4r	.
.	16A\J	.	.	.	.
8GGL 8GGG'/	8c#'\J)	.	.	.	.
*	*	*	*	*8va	*
8GG 8GGG'/	8dL 8Fn'\	.	8dd'\	8ddd'\L	.
8GGJ 8GGG'/	8dJ 8F'\	.	8r	8ddddJ 8ddd'\	.
*	*	*	*	*X8va	*
=179	=179	=179	=179	=179	=179
8r	(16BnLL 16F\	.	4r	4r	.
.	16G\J	.	.	.	.
8GGL 8GGG'/	8cJ 8E-'\)	.	.	.	.
8r	(16c#XLL 16F#X\	.	8g'/	8gg'\L	.
.	16A\J	.	.	.	.
8GGJ 8GGG'/	8dJ 8Fn'\)	.	8r	8gggJ 8gg'\	.
=180	=180	=180	=180	=180	=180
8r	(16BnLL 16F\	.	4r	4r	.
.	16G\J	.	.	.	.
8GGL 8GGG'/	8cnJ 8E-'\)	.	.	.	.
8GG 8GGG'/	(16c#XLL 16F#X\	.	8g'/	8gg'\L	.
.	16A\J	.	.	.	.
8GGJ 8GGG'/	8dJ 8Fn'\)	.	8r	8gggJ 8gg'\	.
=181	=181	=181	=181	=181	=181
8r	(16BnLL 16F\	.	4r	4r	.
.	16G\J	.	.	.	.
8GGL 8GGG'/	8cnJ 8E-'\)	.	.	.	.
8r	(16c#XLL 16F#X\	.	8g'/	8gg'\L	.
.	16A\J	.	.	.	.
8GGJ 8GGG'/	8dJ 8Fn'\)	.	8r	8gggJ 8gg'\	.
!	!	!	!LO:LB:g=original	!LO:LB:g=original	!
=182	=182	=182	=182	=182	=182
*	*	*	*xywh-#13:-3,3009,2652,579	*xywh-#13:-3,3009,2652,579	*
8r	(16BnLL 16F\	.	4r	4r	.
.	16G\J	.	.	.	.
8GGL 8GGG'/	8cnJ 8E-'\)	.	.	.	.
8GG 8GGG'/	(16c#XLL 16F#X\	.	8g'/	8gg'\L	.
.	16A\J	.	.	.	.
8GGJ 8GGG'/	8dJ 8Fn'\)	.	8r	8gggJ 8gg'\	.
!LO:LB:g=original	!LO:LB:g=original	!	!	!	!
=183	=183	=183	=183	=183	=183
!!!OMD:
!!!OMD-mod: Tempo I
*xywh-#12:281,2974,2574,590	*xywh-#12:281,2974,2574,590	*	*	*	*
!	!LO:TX:a:mod= :t=Tempo I.:B	!	!	!LO:TX:a:B:mod= :t=Tempo I.	!
8GG 8GGG'/	8d 8B-X 8G\	.	(16g/LL	4r	pp <
.	.	.	16a/	.	.
8r	8r	.	16b-/	.	.
.	.	.	16cc/JJ	.	.
4r	4r	.	8dd'/L)	8r	.
.	.	.	8d'/J	8dd'\	[
=184	=184	=184	=184	=184	=184
(16GGG/LL	(16GG/LL	pp	8g'/L	8gg'\L	.
16AAA/	16AA/	.	.	.	.
16BBB-/	16BB-/	.	8d'/	8dd'\	.
16CC/JJ	16C/JJ	.	.	.	.
8DD'/L)	8D'\L)	.	(8.d^>/	(8.dd^\	.
8DD'/J	8D'\J	.	.	.	.
.	.	.	16c/Jk	16cc\Jk	.
=185	=185	=185	=185	=185	=185
8GG'/L	8G'\L	.	8B-'/L)	8b-'\L)	.
!	!	!	!LO:TUP:b	!LO:TUP:a	!
8DD'/	8D'\	.	(24B-/L	(24b-\L	.
.	.	.	24c/	24cc\	.
.	.	.	24B-/JJ	24b-\JJ	.
(8.DD^>/	(8.D^\	.	8A'/L)	8a'/L)	.
.	.	.	8F#X'/J	8f#X'/J	.
16CC/Jk	16C\Jk	.	.	.	.
=186	=186	=186	=186	=186	=186
8BBB-'/L)	8BB-/L)	.	8G'/	8g'/	.
(24BBB-/L	(24BB-/L	.	8r	8r	.
24CC/	24C/	.	.	.	.
24BBB-/JJ	24BB-/JJ	.	.	.	.
8AAA'/L)	8AA'/L)	.	8d'/	4r	.
8FFF#X'/J	8FF#X'/J	.	8r	.	.
=187	=187	=187	=187	=187	=187
!	!	!LO:HP:t=cresc. molto	!	!	!LO:HP:t=cresc. molto
8GGG'/	8GG'/	<	4r	8g'/	<
8r	8r	.	.	8r	.
8DD 8DDD'^>/	8D'^\	.	8d'^>/	8dd'^\	.
8r	8r	.	8r	8r	.
=188	=188	=188	=188	=188	=188
8GG 8GGG'^>/	8G'^\	<	8g'^>/	8gg'^\	<
8r	8r	.	8r	8r	.
8DD 8DDD'^>/	8d 8D'^\	.	8dd'\	8ddd'^\	.
8r	8r	[[	8r	8r	[[
=189	=189	=189	=189	=189	=189
8GG 8GGG'^>/	8d 8B- 8G 8D'^\	sff	8dd 8b- 8g'\	8ggg 8ddd 8bb- 8gg'\	sff
8r	8r	.	8r	8r	.
4r;	4r;	.	4r;	4r;	.
==	==	==	==	==	==
*-	*-	*-	*-	*-	*-
!!!system-decoration: {(s1,s2)}{(s3,s4)}
!!!RDF**kern: > = above
!!!RDF**kern: < = below
!!!filter-modern: shed -k -e "s/([^a-gA-Gn#X-])[<>]/$1/g" | shed -k -e "s/:TUP:/:tup:/L" | shed -e "s/TX(.*):t=P:/tx$1:t=P:/LG" | sic -sq | modori -m
!!!ENC: Andrzej Gręziak
!!!END: 2022-03-01
!!!EED: Krzysztof Stępień
!!!EEV: 2022-03-09
!!!EED2: Andrzej Kubiczek
!!!EEV2: 2023-07-14
!!!ENC-modern: Andrzej Kubiczek
!!!END-modern: 2023-07-14
!!!ENC-iiif: Olaf Gawdzik
!!!END-iiif: 2022-09-15
